!!!!SEGMENT: pl-cz--iii-685--001_volckmer-augustin--missa-ex-b-kyrie.krn
!!!cenid: 17xx:1187
!!!COM: Volckmer, Augustin
!!!COM-rismID:
!!!CDT: 1755-~1820
!!!CNT:
!!!OPR: Missa ex B
!!!OTL: Kyrie
!!!OMV: 001
!!!PDT:
!!!AGN: Sacred; Mass
!!!SMS-siglum: PL-CZ
!!!SMS-shelfmark: III-685
!!!SMS-shelfwork: 001-001 M
!!!SMS-variant:
!!!SMS-altvar:
!!!NIFC-rismSourceID: 300001397
!!!NIFC-islandoraID: pl-cz:40224
!!!URL-pdf-islandora: https://repozytorium.nifc.pl/islandora/object/pl-cz%3A40224/datastream/PDF/view
!!!URL-scan:
!!!ONB-nifc: UWAGA: części Mszy: Kyrie, Gloria, Graduale (instrumentalne), Credo, Eia chori jubilemus, Sanctus, Pleni, Benedictus, Agnus Dei, Dona nobis, Tantum ergo sacramentum
!!!AIN: 1 alto 1 bass 2 clars 2 cor 1 fagot 1 organ 1 soprn 1 tenor 1 viola 2 violn
!!!key: B-
**kern	**fba	**dynam	**kern	**dynam	**kern	**dynam	**kern	**dynam	**kern	**text	**dynam	**kern	**text	**dynam	**kern	**text	**dynam	**kern	**text	**dynam	**kern	**dynam	**kern	**dynam	**kern	**dynam	**kern	**dynam
*	*	*	*group4	*	*group4	*	*group4	*	*group3	*	*	*group3	*	*	*group3	*	*	*group3	*	*	*group2	*	*group2	*	*group1	*	*group1	*
*part12	*part12	*part12	*part11	*part11	*part10	*part10	*part9	*part9	*part8	*part8	*part8	*part7	*part7	*part7	*part6	*part6	*part6	*part5	*part5	*part5	*part4	*part4	*part3	*part3	*part2	*part2	*part1	*part1
*staff12	*	*	*staff11	*	*staff10	*	*staff9	*	*staff8	*staff8	*	*staff7	*staff7	*	*staff6	*staff6	*	*staff5	*staff5	*	*staff4	*	*staff3	*	*staff2	*	*staff1	*
*I"Organo. e Fagotti.	*	*	*I"Viola. obl.	*	*I"Violino Secundo.	*	*I"Violino Primo.	*	*I"Baſso.	*	*	*I"Tenore	*	*	*I"Alto	*	*	*I"Canto	*	*	*I"Corno. Secundo in B Baſson	*	*I"Corno Primo. in B Baſson.	*	*I"Clarinetto Secundo.	*	*I"Clarinetto Primo.	*
*I'org	*	*	*I'vla obl	*	*I'vl 2	*	*I'vl 1	*	*I'B	*	*	*I'T	*	*	*I'A	*	*	*I'S	*	*	*I'cor basso 2 in B	*	*I'cor basso 1 in B	*	*I'cl 2	*	*I'cl 1	*
*Iorgan&Ifagot	*	*	*Iviola	*	*Ivioln	*	*Ivioln	*	*Ibass	*	*	*Itenor	*	*	*Ialto	*	*	*Isoprn	*	*	*Icor	*	*Icor	*	*Iclars	*	*Iclars	*
*ICklav&ICww	*	*	*ICstr	*	*ICstr	*	*ICstr	*	*ICvox	*	*	*ICvox	*	*	*ICvox	*	*	*ICvox	*	*	*ICbras	*	*ICbras	*	*ICww	*	*ICww	*
*IGcont	*	*	*	*	*	*	*	*	*IGcoro	*	*	*IGcoro	*	*	*IGcoro	*	*	*IGcoro	*	*	*	*	*	*	*	*	*	*
*clefF4	*	*	*clefC3	*	*clefG2	*	*clefG2	*	*clefF4	*	*	*clefC4	*	*	*clefC3	*	*	*clefC1	*	*	*clefG2	*	*clefG2	*	*clefG2	*	*clefG2	*
*	*	*	*	*	*	*	*	*	*	*	*	*	*	*	*	*	*	*	*	*	*ITrd1c2	*	*ITrd1c2	*	*ITrd1c2	*	*ITrd1c2	*
*k[b-e-]	*	*	*k[b-e-]	*	*k[b-e-]	*	*k[b-e-]	*	*k[b-e-]	*	*	*k[b-e-]	*	*	*k[b-e-]	*	*	*k[b-e-]	*	*	*k[b-e-]	*	*k[b-e-]	*	*k[b-e-]	*	*k[b-e-]	*
*B-:	*	*	*B-:	*	*B-:	*	*B-:	*	*B-:	*	*	*B-:	*	*	*B-:	*	*	*B-:	*	*	*B-:	*	*B-:	*	*B-:	*	*B-:	*
*M6/8	*	*	*M6/8	*	*M6/8	*	*M6/8	*	*M6/8	*	*	*M6/8	*	*	*M6/8	*	*	*M6/8	*	*	*M6/8	*	*M6/8	*	*M6/8	*	*M6/8	*
=	=	=	=	=	=	=	=	=	=	=	=	=	=	=	=	=	=	=	=	=	=	=	=	=	=	=	=	=
*all\right	*	*	*all\right	*	*all\right	*	*all\right	*	*all\right	*	*	*all\right	*	*	*all\right	*	*	*all\right	*	*	*all\right	*	*all\right	*	*all\right	*	*all\right	*
!LO:TX:b:i:t=Solo	!	!	!	!	!LO:TX:a:t=Andante Amoroso	!	!LO:TX:b:i:t=Dolce	!	!	!	!	!	!	!	!	!	!	!	!	!	!	!	!	!	!	!	!	!
!LO:TX:a:t=Andante Amoroso.	!	!	!LO:TX:a:t=Andante Amoroso	!	!LO:TX:a:i:t=dolce	!	!LO:TX:a:t=Andante Amoroso	!	!LO:TX:a:t=Andante Amoroso	!	!	!LO:TX:a:t=Andante Amoroso	!	!	!LO:TX:a:t=Andante Amoroso	!	!	!LO:TX:a:t=Andante Amoroso	!	!	!LO:TX:a:t=Andante Amoroso.	!	!LO:TX:a:t=Andante Amorose	!	!LO:TX:a:t=Andante Amoroso.	!	!LO:TX:a:t=Andante Amoroso	!
8r	.	.	8r	.	8d/	.	8f/	.	8r	.	.	8r	.	.	8r	.	.	8r	.	.	8r	.	8r	.	8r	.	8r	.
=1	=1	=1	=1	=1	=1	=1	=1	=1	=1	=1	=1	=1	=1	=1	=1	=1	=1	=1	=1	=1	=1	=1	=1	=1	=1	=1	=1	=1
!	!	!	!LO:TX:b:i:t=dolce	!	!	!	!LO:TX:t=P:problem:mixed beam	!	!LO:TX:a:t=12	!	!	!LO:TX:a:t=7	!	!	!LO:TX:a:t=12	!	!	!LO:TX:a:t=12	!	!	!LO:TX:a:t=4	!	!LO:TX:a:t=4	!	!LO:TX:a:t=4	!	!LO:TX:a:t=3	!
4BB-/	3	.	4B-/	.	(8d/L	.	(8f/L	.	0.r	.	.	0.r	.	.	0.r	.	.	0.r	.	.	0.r	.	0.r	.	0.r	.	1.r	.
.	.	.	.	.	8f/)	.	8dd\)	.	.	.	.	.	.	.	.	.	.	.	.	.	.	.	.	.	.	.	.	.
!	!	!LO:DY:t=pia	!	!	!	!	!	!	!	!	!	!	!	!	!	!	!	!	!	!	!	!	!	!	!	!	!	!
8r	.	p	8r	.	8e-/J|	.	8cc\J|	.	.	.	.	.	.	.	.	.	.	.	.	.	.	.	.	.	.	.	.	.
4B-\	.	.	4b-\	.	(8d/L	.	(8b-\L	.	.	.	.	.	.	.	.	.	.	.	.	.	.	.	.	.	.	.	.	.
.	.	.	.	.	8c/)	.	8a\)	.	.	.	.	.	.	.	.	.	.	.	.	.	.	.	.	.	.	.	.	.
8r	.	.	8r	.	8d/J|	.	8b-\J|	.	.	.	.	.	.	.	.	.	.	.	.	.	.	.	.	.	.	.	.	.
=2	=2	=2	=2	=2	=2	=2	=2	=2	=2	=2	=2	=2	=2	=2	=2	=2	=2	=2	=2	=2	=2	=2	=2	=2	=2	=2	=2	=2
!LO:TX:t=P:problem:mixed beam	!	!	!	!	!	!	!	!	!	!	!	!	!	!	!	!	!	!	!	!	!	!	!	!	!	!	!	!
8E-\L	-4 2	.	4B-/	.	(8f/L	.	(8a-X/L	.	.	.	.	.	.	.	.	.	.	.	.	.	.	.	.	.	.	.	.	.
8GG/	.	.	.	.	8e-/)	.	8g/)	.	.	.	.	.	.	.	.	.	.	.	.	.	.	.	.	.	.	.	.	.
8BB-/J	6_ 4_	.	8B-/	.	8e-/J|	.	8g/J|	.	.	.	.	.	.	.	.	.	.	.	.	.	.	.	.	.	.	.	.	.
4E-\	.	.	4B-/	.	8e-/	.	8g/	.	.	.	.	.	.	.	.	.	.	.	.	.	.	.	.	.	.	.	.	.
.	X X	.	.	.	8r	.	8r	.	.	.	.	.	.	.	.	.	.	.	.	.	.	.	.	.	.	.	.	.
8r	.	.	8r	.	8e-/	.	8g/	.	.	.	.	.	.	.	.	.	.	.	.	.	.	.	.	.	.	.	.	.
=3	=3	=3	=3	=3	=3	=3	=3	=3	=3	=3	=3	=3	=3	=3	=3	=3	=3	=3	=3	=3	=3	=3	=3	=3	=3	=3	=3	=3
!	!	!	!	!	!LO:TX:t=P:problem:mixed beam	!	!LO:TX:t=P:problem:mixed beam	!	!	!	!	!	!	!	!	!	!	!	!	!	!	!	!	!	!	!	!	!
4E-\	3	.	4B-/	.	(8e-/L	.	(8g/L	.	.	.	.	.	.	.	.	.	.	.	.	.	.	.	.	.	.	.	2.r	.
.	.	.	.	.	8cc\)	.	8ee-\)	.	.	.	.	.	.	.	.	.	.	.	.	.	.	.	.	.	.	.	.	.
8r	.	.	8r	.	8b-\J|	.	8dd\J|	.	.	.	.	.	.	.	.	.	.	.	.	.	.	.	.	.	.	.	.	.
4F\	n	.	4f\	.	(8a/L	.	(8cc\L	.	.	.	.	.	.	.	.	.	.	.	.	.	.	.	.	.	.	.	.	.
.	.	.	.	.	8g#X/)	.	8bn\)	.	.	.	.	.	.	.	.	.	.	.	.	.	.	.	.	.	.	.	.	.
8r	.	.	8r	.	8a/J|	.	8cc\J|	.	.	.	.	.	.	.	.	.	.	.	.	.	.	.	.	.	.	.	.	.
!	!	!	!	!	!LO:LB:g=original	!	!	!	!	!	!	!	!	!	!	!	!	!	!	!	!	!	!	!	!	!	!	!
=4	=4	=4	=4	=4	=4	=4	=4	=4	=4	=4	=4	=4	=4	=4	=4	=4	=4	=4	=4	=4	=4	=4	=4	=4	=4	=4	=4	=4
8B-\L	#2_ 7_	.	4.f\	.	(4.a/	.	(4.cc#X\	.	.	.	.	.	.	.	.	.	.	.	.	.	.	.	.	.	.	.	4r	.
8F\	.	.	.	.	.	.	.	.	.	.	.	.	.	.	.	.	.	.	.	.	.	.	.	.	.	.	.	.
8D\J	.	.	.	.	.	.	.	.	.	.	.	.	.	.	.	.	.	.	.	.	.	.	.	.	.	.	8r	.
4BB-/	3	.	8f\	.	8b-\)	.	8dd\)|	.	.	.	.	.	.	.	.	.	.	.	.	.	.	.	.	.	.	.	4r	.
.	.	.	8r	.	8r	.	8r	.	.	.	.	.	.	.	.	.	.	.	.	.	.	.	.	.	.	.	.	.
!	!	!	!	!	!	!	!LO:LB:g=original	!	!	!	!	!	!	!	!	!	!	!	!	!	!	!	!	!	!	!	!	!
!	!	!	!	!	!	!LO:DY:t=pia	!	!	!	!	!	!	!	!	!	!	!	!	!	!	!	!	!	!	!	!	!	!
8r	.	.	8r	.	8r	p	8B-/	.	.	.	.	.	.	.	.	.	.	.	.	.	.	.	.	.	.	.	8b-\	.
=5	=5	=5	=5	=5	=5	=5	=5	=5	=5	=5	=5	=5	=5	=5	=5	=5	=5	=5	=5	=5	=5	=5	=5	=5	=5	=5	=5	=5
!LO:TX:t=P:problem:mixed beam	!	!	!	!LO:DY:a:t=piano	!	!	!	!LO:DY:rj:t=pia	!	!	!	!	!	!	!	!	!	!	!	!	!LO:TX:a:i:t=dolce	!	!LO:TX:b:i:t=dolce	!	!	!	!	!
8E-\L|	.	.	8E-/L|	p	8e-'/L	.	8g'/L	p	0.r	.	.	1.r	.	.	0.r	.	.	0.r	.	.	4B-/	.	4b-\	.	8ee-'\L	.	8gg\L|	.
8GG/|	.	.	8G/|	.	8e-'/	.	8g'/	.	.	.	.	.	.	.	.	.	.	.	.	.	.	.	.	.	8ee-'\	.	8gg\|	.
8BB-/J|	.	.	8B-/J|	.	8e-'/J	.	8g'/J	.	.	.	.	.	.	.	.	.	.	.	.	.	8B-/	.	8b-\	.	8ee-'\J	.	8gg\J|	.
!	!	!	!LO:TX:t=P:problem:mixed beam	!	!	!	!	!	!	!	!	!	!	!	!	!	!	!	!	!	!	!	!	!	!	!	!	!
8E-\L|	.	.	8e-\L	.	8e-'/L	.	8g'/L	.	.	.	.	.	.	.	.	.	.	.	.	.	4B-/	.	4b-\	.	8ee-\L	.	8gg\L	.
8e-\J|	.	.	8E-/J	.	(16g/L	.	(16b-/L	.	.	.	.	.	.	.	.	.	.	.	.	.	.	.	.	.	(16gg\L	.	(16bb-\L	.
.	.	.	.	.	16f#X/)	.	16a/)	.	.	.	.	.	.	.	.	.	.	.	.	.	.	.	.	.	16ff#X\	.	16aa\)	.
8r	.	.	8r	.	(16g/	.	(16b-/	.	.	.	.	.	.	.	.	.	.	.	.	.	8r	.	8r	.	16gg\)	.	16bb-\|	.
.	.	.	.	.	16e-/JJ)	.	16g/JJ)	.	.	.	.	.	.	.	.	.	.	.	.	.	.	.	.	.	16ee-\JJ|	.	16gg\JJ|	.
!LO:LB:g=original	!	!	!	!	!	!	!	!	!	!	!	!	!	!	!	!	!	!	!	!	!	!	!	!	!	!	!	!
=6	=6	=6	=6	=6	=6	=6	=6	=6	=6	=6	=6	=6	=6	=6	=6	=6	=6	=6	=6	=6	=6	=6	=6	=6	=6	=6	=6	=6
8BB-/L|	.	.	8B-\L|	.	8d/L	.	8f'/L	.	.	.	.	.	.	.	.	.	.	.	.	.	4B-/	.	4f/	.	8dd\L	.	8ff\L'	.
8D/|	.	.	8d\|	.	8d/	.	8f'/	.	.	.	.	.	.	.	.	.	.	.	.	.	.	.	.	.	8dd\	.	8ff\'	.
8F/J|	.	.	8f\J|	.	8d/J	.	8f'/J	.	.	.	.	.	.	.	.	.	.	.	.	.	8B-/	.	8f/	.	8dd\J	.	8ff\J'	.
!LO:TX:t=P:problem:mixed beam	!	!	!	!	!	!	!	!	!	!	!	!	!	!	!	!	!	!	!	!	!	!	!	!	!	!	!	!
8B-\L|	.	.	4b-\|	.	4d/	.	8f/L|	.	.	.	.	.	.	.	.	.	.	.	.	.	4B-/	.	4f/	.	4dd\	.	8ff\L	.
8BB-/J|	.	.	.	.	.	.	(16b-/L	.	.	.	.	.	.	.	.	.	.	.	.	.	.	.	.	.	.	.	(16bb-\L	.
.	.	.	.	.	.	.	16a/)	.	.	.	.	.	.	.	.	.	.	.	.	.	.	.	.	.	.	.	16aa\)	.
8r	.	.	8r	.	8d/	.	(16b-/	.	.	.	.	.	.	.	.	.	.	.	.	.	8r	.	8r	.	8dd\	.	16bb-\|	.
.	.	.	.	.	.	.	16f/JJ)|	.	.	.	.	.	.	.	.	.	.	.	.	.	.	.	.	.	.	.	16ff\JJ|	.
!	!	!	!LO:LB:g=original	!	!	!	!	!	!	!	!	!	!	!	!	!	!	!	!	!	!	!	!	!	!	!	!LO:LB:g=original	!
=7	=7	=7	=7	=7	=7	=7	=7	=7	=7	=7	=7	=7	=7	=7	=7	=7	=7	=7	=7	=7	=7	=7	=7	=7	=7	=7	=7	=7
8r	.	.	8r	.	8c/L	.	8e-/L|	.	.	.	.	2.r	.	.	.	.	.	.	.	.	4f/	.	4cc\	.	8cc\L	.	8ee-\L	.
!LO:TX:t=P:problem:mixed beam	!	!	!	!	!	!	!	!	!	!	!	!	!	!	!	!	!	!	!	!	!	!	!	!	!	!	!	!
8FF/L|	.	.	8f\L|	.	(16c/L	.	(16e-/L	.	.	.	.	.	.	.	.	.	.	.	.	.	.	.	.	.	(16cc\L	.	(16ee-\L	.
.	.	.	.	.	16B-/J)	.	16d/J)	.	.	.	.	.	.	.	.	.	.	.	.	.	.	.	.	.	16b-\J)	.	16dd\J)	.
8F\J|	.	.	8f\J|	.	8c/J	.	8e-/J|	.	.	.	.	.	.	.	.	.	.	.	.	.	8f/	.	8cc\	.	8cc\J	.	8ee-\J	.
8r	.	.	8r	.	8B-/L	.	8d/L|	.	.	.	.	.	.	.	.	.	.	.	.	.	4b-\	.	4dd\	.	8b-\L	.	8dd\L	.
!LO:TX:t=P:problem:mixed beam	!	!	!	!	!	!	!	!	!	!	!	!	!	!	!	!	!	!	!	!	!	!	!	!	!	!	!	!
8BB-/L|	.	.	8f\L|	.	(16B-/L	.	(16d/L	.	.	.	.	.	.	.	.	.	.	.	.	.	.	.	.	.	(16b-\L	.	(16dd\L	.
.	.	.	.	.	16A/J)	.	16c/J)	.	.	.	.	.	.	.	.	.	.	.	.	.	.	.	.	.	16a\J)	.	16cc\J)	.
8B-\J|	.	.	8f\J|	.	8B-/J	.	8d/J|	.	.	.	.	.	.	.	.	.	.	.	.	.	8b-\	.	8dd\	.	8b-\J	.	8dd\J	.
=8	=8	=8	=8	=8	=8	=8	=8	=8	=8	=8	=8	=8	=8	=8	=8	=8	=8	=8	=8	=8	=8	=8	=8	=8	=8	=8	=8	=8
!	!	!	!	!LO:DY:t=fort	!	!LO:DY:a:t=fort	!	!LO:DY:a:t=forte	!	!	!	!	!	!	!	!	!	!	!	!	!	!	!	!	!	!	!	!
8F/L|	.	.	8f\L	f	4A/	f	8c/L	f	.	.	.	4r	.	.	.	.	.	.	.	.	8f/L	.	8cc\L	.	4a\	.	8cc\L	.
8C/|	.	.	8c\	.	.	.	8f/|	.	.	.	.	.	.	.	.	.	.	.	.	.	8f/	.	8cc\	.	.	.	8ff\	.
8AA/J|	.	.	8A\J	.	8A/	.	8f/J|	.	.	.	.	8r	.	.	.	.	.	.	.	.	8f/J	.	8cc\J	.	8a\	.	8ff\J	.
!LO:TX:t=P:problem:mixed beam	!	!	!	!	!	!	!	!	!	!	!	!	!	!	!	!	!	!	!	!	!	!	!	!	!	!	!	!
8FF/L|	.	.	4F/	.	8A/	.	8f/|	.	.	.	.	4r	.	.	.	.	.	.	.	.	4f/	.	4cc\	.	4a\	.	4ff\	.
8F\J|	.	.	.	.	8r	.	8r	.	.	.	.	.	.	.	.	.	.	.	.	.	.	.	.	.	.	.	.	.
!	!	!	!	!	!	!LO:DY:a:t=pia	!	!LO:DY:t=pia	!	!	!	!LO:TX:a:i:t=Solo	!	!	!	!	!	!	!	!	!	!	!	!	!	!	!	!
8r	.	.	8r	.	8d/	p	8f/	p	.	.	.	(8F/	Ky-	.	.	.	.	.	.	.	8r	.	8r	.	8r	.	8r	.
!	!	!	!	!	!	!	!	!	!	!	!	!	!	!	!	!	!	!	!	!	!	!	!	!	!LO:LB:g=original	!	!	!
=9	=9	=9	=9	=9	=9	=9	=9	=9	=9	=9	=9	=9	=9	=9	=9	=9	=9	=9	=9	=9	=9	=9	=9	=9	=9	=9	=9	=9
!LO:TX:b:i:t=Con Org&colon;	!	!	!	!	!	!	!LO:TX:t=P:problem:mixed beam	!	!	!	!	!LO:TX:t=P:problem:mixed beam	!	!	!	!	!	!	!	!	!LO:TX:a:t=4	!	!LO:TX:a:t=4	!	!	!	!LO:TX:a:t=3	!
!	!	!	!	!LO:DY:t=pia	!	!	!LO:TX:b:t=vox	!	!	!	!	!	!	!	!	!	!	!	!	!	!	!	!	!	!	!	!	!
4BB-/	3	.	4B-/	p	(8d/L	.	(8f/L	.	0.r	.	.	8F/L	.	.	0.r	.	.	0.r	.	.	0.r	.	0.r	.	0.r	.	1.r	.
!	!	!	!	!	!LO:TX:a:t=vox	!	!	!	!	!	!	!	!	!	!	!	!	!	!	!	!	!	!	!	!	!	!	!
.	.	.	.	.	8f/)	.	8dd\)	.	.	.	.	8d\J)	.	.	.	.	.	.	.	.	.	.	.	.	.	.	.	.
8r	.	.	8r	.	8e-/J|	.	8cc\J|	.	.	.	.	8c\	-ri-	.	.	.	.	.	.	.	.	.	.	.	.	.	.	.
4B-\	.	.	4b-\	.	(8d/L	.	(8b-\L	.	.	.	.	8B-\L	-e	.	.	.	.	.	.	.	.	.	.	.	.	.	.	.
.	.	.	.	.	8c/)	.	8a\)	.	.	.	.	8A\J	.	.	.	.	.	.	.	.	.	.	.	.	.	.	.	.
!	!	!LO:DY:t=piano	!	!	!	!	!	!	!	!	!	!	!	!	!	!	!	!	!	!	!	!	!	!	!	!	!	!
8r	.	p	8r	.	8d/J|	.	8b-\J|	.	.	.	.	8B-\	e-	.	.	.	.	.	.	.	.	.	.	.	.	.	.	.
=10	=10	=10	=10	=10	=10	=10	=10	=10	=10	=10	=10	=10	=10	=10	=10	=10	=10	=10	=10	=10	=10	=10	=10	=10	=10	=10	=10	=10
8e-\L	-4 2	.	4B-/	.	(8f/L	.	(8a-X/L	.	.	.	.	(8A-X\	-lei-	.	.	.	.	.	.	.	.	.	.	.	.	.	.	.
8B-\	.	.	.	.	8e-/)	.	8g/)	.	.	.	.	4G\)	.	.	.	.	.	.	.	.	.	.	.	.	.	.	.	.
8G\J	6_ 4_	.	8B-/	.	8e-/J|	.	8g/J|	.	.	.	.	.	.	.	.	.	.	.	.	.	.	.	.	.	.	.	.	.
4E-\	.	.	4B-/	.	8e-/	.	8g/|	.	.	.	.	8G/	-son	.	.	.	.	.	.	.	.	.	.	.	.	.	.	.
.	X X	.	.	.	8r	.	8r	.	.	.	.	8r	.	.	.	.	.	.	.	.	.	.	.	.	.	.	.	.
8r	.	.	8r	.	8e-/	.	8g/|	.	.	.	.	(8G/	Ky	.	.	.	.	.	.	.	.	.	.	.	.	.	.	.
!	!	!	!	!	!LO:LB:g=original	!	!LO:LB:g=original	!	!	!	!	!	!	!	!	!	!	!	!	!	!	!	!	!	!	!	!	!
=11	=11	=11	=11	=11	=11	=11	=11	=11	=11	=11	=11	=11	=11	=11	=11	=11	=11	=11	=11	=11	=11	=11	=11	=11	=11	=11	=11	=11
!	!	!	!	!	!LO:TX:t=P:problem:mixed beam	!	!	!	!	!	!	!LO:TX:t=P:problem:mixed beam	!	!	!	!	!	!	!	!	!	!	!	!	!	!	!	!
4E-\	3	.	4B-/	.	(8e-/L	.	(8g/L	.	.	.	.	8G/L	.	.	.	.	.	.	.	.	.	.	.	.	.	.	2.r	.
.	.	.	.	.	8cc\)	.	8ee-\)	.	.	.	.	8e-\J)	.	.	.	.	.	.	.	.	.	.	.	.	.	.	.	.
8r	.	.	8r	.	8b-\J|	.	8dd\J|	.	.	.	.	8d\	-ri-	.	.	.	.	.	.	.	.	.	.	.	.	.	.	.
4F\	n	.	4f\	.	(8a/L	.	(8cc\L	.	.	.	.	8c\L	-e	.	.	.	.	.	.	.	.	.	.	.	.	.	.	.
.	.	.	.	.	8g#X/)	.	8bn\)	.	.	.	.	8Bn\J	.	.	.	.	.	.	.	.	.	.	.	.	.	.	.	.
8r	.	.	8r	.	8a/J|	.	8cc\J|	.	.	.	.	8c\	e-	.	.	.	.	.	.	.	.	.	.	.	.	.	.	.
!	!	!	!	!	!	!	!	!	!	!	!	!LO:LB:g=original	!	!	!	!	!	!	!	!	!	!	!	!	!	!	!	!
=12	=12	=12	=12	=12	=12	=12	=12	=12	=12	=12	=12	=12	=12	=12	=12	=12	=12	=12	=12	=12	=12	=12	=12	=12	=12	=12	=12	=12
8B-\L	2_ 7_	.	4.f\	.	(4.a/	.	(4.cc#X\	.	.	.	.	4.c#X\	-lei-	.	.	.	.	.	.	.	.	.	.	.	.	.	4r	.
8F\	.	.	.	.	.	.	.	.	.	.	.	.	.	.	.	.	.	.	.	.	.	.	.	.	.	.	.	.
8D\J	.	.	.	.	.	.	.	.	.	.	.	.	.	.	.	.	.	.	.	.	.	.	.	.	.	.	8r	.
4BB-/	3	.	8f\	.	8b-/)	.	8dd\)	.	.	.	.	8d\	-son	.	.	.	.	.	.	.	.	.	.	.	.	.	4r	.
!	!	!	!	!	!	!	!	!LO:DY:t=forte	!	!	!	!	!	!	!	!	!	!	!	!	!	!	!	!	!	!	!	!
.	.	.	8r	.	8r	.	8r	f	.	.	.	8r	.	.	.	.	.	.	.	.	.	.	.	.	.	.	.	.
!	!	!	!	!	!	!	!	!	!	!	!	!	!	!	!	!	!	!	!	!	!	!	!	!	!	!	!	!LO:DY:t=fort
8r	.	.	8r	.	8r	.	8b-\	.	.	.	.	8r	.	.	.	.	.	.	.	.	.	.	.	.	.	.	8b-\	f
!	!	!	!	!	!	!	!	!	!	!	!	!	!	!	!	!	!	!	!	!	!LO:LB:g=original	!	!LO:LB:g=original	!	!	!	!	!
=13	=13	=13	=13	=13	=13	=13	=13	=13	=13	=13	=13	=13	=13	=13	=13	=13	=13	=13	=13	=13	=13	=13	=13	=13	=13	=13	=13	=13
!LO:TX:b:i:t=Tutti	!	!	!	!	!	!	!	!	!	!	!	!	!	!	!	!	!	!	!	!	!	!	!	!	!	!	!	!
!LO:TX:t=P:problem:mixed beam	!	!	!	!LO:DY:t=fort&colon;	!	!LO:DY:t=fort	!	!	!	!	!	!LO:TX:a:i:t=Tut&colon;	!	!	!	!	!LO:DY:b:t=forte:color=red	!	!	!LO:DY:b:t=forte:color=red	!	!LO:DY:t=fort	!	!LO:DY:t=for	!	!LO:DY:t=fort	!	!
8E-\L	3	.	8b-'\L	f	8ee-'\L	f	8gg\L|	.	8E-\L	Ky-	.	4e-\	Ky-	.	4b-\	Ky-	f	4gg\	Ky-	f	4b-\	f	4b-\	f	4ee-\	f	4gg\	.
8GG/	.	.	8b-'\	.	8ee-'\	.	8gg\|	.	8G\J	.	.	.	.	.	.	.	.	.	.	.	.	.	.	.	.	.	.	.
8BB-/J	.	.	8b-'\J	.	8ee-'\J	.	8gg\J|	.	8B-\	-ri-	.	8e-\	-ri-	.	8b-\	-ri-	.	8gg\	-ri-	.	8b-\	.	8b-\	.	8ee-\	.	8gg\	.
!	!	!	!	!	!	!	!LO:TX:t=P:problem:mixed beam	!	!	!	!	!	!	!	!	!	!	!	!	!	!	!	!	!	!	!	!	!
!	!	!LO:DY:t=fort	!	!	!LO:TX:t=P:problem:mixed beam	!	!	!	!	!	!	!	!	!	!	!	!	!	!	!	!	!	!	!	!	!	!	!
4E-\	.	f	4b-'\	.	8ee-\L	.	16gg\LL|	.	4e-\	-e	.	4e-\	-e	.	4b-\	-e	.	4gg\	-e	.	4b-\	.	4b-\	.	4ee-\	.	4gg\	.
.	.	.	.	.	.	.	16e-/|	.	.	.	.	.	.	.	.	.	.	.	.	.	.	.	.	.	.	.	.	.
.	.	.	.	.	16e-/L|	.	16g/|	.	.	.	.	.	.	.	.	.	.	.	.	.	.	.	.	.	.	.	.	.
.	.	.	.	.	16g/|	.	16b-/|	.	.	.	.	.	.	.	.	.	.	.	.	.	.	.	.	.	.	.	.	.
8r	.	.	8r	.	16b-/|	.	16ee-/|	.	8r	.	.	8r	.	.	8r	.	.	8r	.	.	8r	.	8r	.	8r	.	8r	.
.	.	.	.	.	16ee-/JJ|	.	16gg/JJ|	.	.	.	.	.	.	.	.	.	.	.	.	.	.	.	.	.	.	.	.	.
=14	=14	=14	=14	=14	=14	=14	=14	=14	=14	=14	=14	=14	=14	=14	=14	=14	=14	=14	=14	=14	=14	=14	=14	=14	=14	=14	=14	=14
8BB-/L	5 3	.	8b-'\L	.	8dd\L|	.	8ff\L|	.	8BB-/L	Ky-	.	4d\	Ky-	.	4b-\	Ky-	.	4ff\	Ky-	.	8B-/L	.	4b-\	.	4dd\	.	4ff\	.
8D/	.	.	8b-'\	.	8dd\|	.	8ff\|	.	8D/J	.	.	.	.	.	.	.	.	.	.	.	8d/	.	.	.	.	.	.	.
8F/J	.	.	8b-'\J	.	8dd\J|	.	8ff\J|	.	8F\	-ri-	.	8d\	-ri-	.	8b-\	-ri-	.	8ff\	-ri-	.	8f/J	.	8b-\	.	8dd\	.	8ff\	.
!	!	!	!	!	!	!	!LO:TX:t=P:problem:mixed beam	!	!	!	!	!	!	!	!	!	!	!	!	!	!	!	!	!	!	!	!	!
!	!	!	!	!	!LO:TX:t=P:problem:mixed beam	!	!	!	!	!	!	!	!	!	!	!	!	!	!	!	!	!	!	!	!	!	!	!
4B-\	.	.	4b-'\	.	8dd\L	.	16ff\LL|	.	4B-\	-e	.	4d\	-e	.	4b-\	-e	.	4ff\	-e	.	4b-\	.	4b-\	.	4dd\	.	4ff\	.
.	.	.	.	.	.	.	16B-/|	.	.	.	.	.	.	.	.	.	.	.	.	.	.	.	.	.	.	.	.	.
.	.	.	.	.	16B-/L|	.	16d/|	.	.	.	.	.	.	.	.	.	.	.	.	.	.	.	.	.	.	.	.	.
.	.	.	.	.	16d/|	.	16f/|	.	.	.	.	.	.	.	.	.	.	.	.	.	.	.	.	.	.	.	.	.
8r	.	.	8r	.	16f/|	.	16b-/|	.	8r	.	.	8r	.	.	8r	.	.	8r	.	.	8r	.	8r	.	8r	.	8r	.
.	.	.	.	.	16b-/JJ|	.	16dd/JJ|	.	.	.	.	.	.	.	.	.	.	.	.	.	.	.	.	.	.	.	.	.
!LO:LB:g=original	!	!	!	!	!	!	!	!	!	!	!	!	!	!	!	!	!	!	!	!	!	!	!	!	!	!	!	!
=15	=15	=15	=15	=15	=15	=15	=15	=15	=15	=15	=15	=15	=15	=15	=15	=15	=15	=15	=15	=15	=15	=15	=15	=15	=15	=15	=15	=15
.	.	.	.	.	.	.	.	.	.	.	.	.	.	.	.	.	.	16qqff/	.	.	.	.	.	.	.	.	16qqff/	.
4AA/	5 3	.	4A/	.	(16cc\LL	.	(16ff\LL	.	4AA/	Ky-	.	4c\	Ky-	.	4f\	Ky-	.	4ee-\	Ky-	.	4f/	.	4cc\	.	4cc\	.	4ee-\	.
.	.	.	.	.	16f\)	.	16ee-\)	.	.	.	.	.	.	.	.	.	.	.	.	.	.	.	.	.	.	.	.	.
.	.	.	.	.	(16cc\	.	16ee-'\	.	.	.	.	.	.	.	.	.	.	.	.	.	.	.	.	.	.	.	.	.
.	.	.	.	.	16f\)	.	16ee-'\	.	.	.	.	.	.	.	.	.	.	.	.	.	.	.	.	.	.	.	.	.
8AA/	.	.	8A/	.	(16cc\	.	16ee-'\	.	8AA/	-ri-	.	8c\	-ri-	.	8f\	-ri-	.	8ee-\	-ri-	.	8f/	.	8cc\	.	8cc\	.	8ee-\	.
.	.	.	.	.	16f\JJ)	.	16ee-'\JJ	.	.	.	.	.	.	.	.	.	.	.	.	.	.	.	.	.	.	.	.	.
.	.	.	.	.	.	.	.	.	.	.	.	.	.	.	.	.	.	16qqee-/	.	.	.	.	.	.	.	.	8qqee-/	.
!	!	!	!	!	!	!	!	!	!	!	!	!	!	!	!	!	!	!	!	!	!	!	!	!	!LO:TX:t=P:problem:mixed beam	!	!	!
8BB-/L	3	.	8B-/L	.	(16b-/LL	.	(16ee-\LL	.	8BB-/L	-e	.	8B-/L	-e	.	4f\	-e	.	8dd\L	-e	.	8d/L	.	8b-\L	.	8b-\L	.	8dd\L	.
.	.	.	.	.	16f/)	.	16dd\)	.	.	.	.	.	.	.	.	.	.	.	.	.	.	.	.	.	.	.	.	.
.	.	.	.	.	.	.	.	.	.	.	.	.	.	.	.	.	.	.	.	.	.	.	.	.	.	.	8qqdd/	.
8C/	.	.	8c/	.	(16e-/	.	(16dd\	.	8C/J	.	.	8E-/	.	.	.	.	.	8cc\J	.	.	8f/	.	8cc\	.	8e-/	.	8cc\	.
.	.	.	.	.	16f/)	.	16cc\)	.	.	.	.	.	.	.	.	.	.	.	.	.	.	.	.	.	.	.	.	.
.	.	.	.	.	.	.	.	.	.	.	.	.	.	.	.	.	.	.	.	.	.	.	.	.	.	.	8qqcc/	.
8D/J	.	.	8d/J	.	(16d/	.	(16cc\	.	8D\	e-	.	8D/J	.	.	8f\	e-	.	8b-\	e-	.	8b-/J	.	8dd\J	.	8d/J	.	8b-\J	.
.	.	.	.	.	16f/JJ)	.	16b-\JJ)	.	.	.	.	.	.	.	.	.	.	.	.	.	.	.	.	.	.	.	.	.
!	!	!	!LO:LB:g=original	!	!	!	!	!	!	!	!	!	!	!	!	!	!	!	!	!	!	!	!	!	!	!	!	!
=16	=16	=16	=16	=16	=16	=16	=16	=16	=16	=16	=16	=16	=16	=16	=16	=16	=16	=16	=16	=16	=16	=16	=16	=16	=16	=16	=16	=16
.	.	.	.	.	.	.	.	.	.	.	.	.	.	.	.	.	.	16qqb-/	.	.	.	.	.	.	.	.	8qqb-/	.
4E-\	4 2	.	4e-\	.	(16c/LL	.	(16b-/LL	.	(4.E-\	-lei-	.	4.C/	e-	.	(4.f\	-lei-	.	(4.a\	-lei-	.	4f/	.	4cc\	.	4c/	.	4a\	.
.	.	.	.	.	16f/)	.	16a/)	.	.	.	.	.	.	.	.	.	.	.	.	.	.	.	.	.	.	.	.	.
.	.	.	.	.	(16c/	.	16a'/	.	.	.	.	.	.	.	.	.	.	.	.	.	.	.	.	.	.	.	.	.
.	.	.	.	.	16f/)	.	16a'/	.	.	.	.	.	.	.	.	.	.	.	.	.	.	.	.	.	.	.	.	.
8E-\	.	.	8e-\	.	(16c/	.	16a'/	.	.	.	.	.	.	.	.	.	.	.	.	.	8f/	.	8cc\	.	8c/	.	8a\	.
.	.	.	.	.	16f/JJ)	.	16a'/JJ	.	.	.	.	.	.	.	.	.	.	.	.	.	.	.	.	.	.	.	.	.
!	!	!	!	!	!	!	!	!	!	!	!	!	!	!	!	!	!	!	!	!	!	!	!	!	!	!	!LO:LB:g=original	!
.	.	.	.	.	.	.	.	.	.	.	.	.	.	.	.	.	.	.	.	.	.	.	.	.	.	.	8qqa/	.
!	!	!	!	!	!	!	!LO:LB:g=original	!	!	!	!	!	!	!	!	!	!	!LO:LB:g=original	!	!	!	!	!	!	!	!	!	!
8D\L	6	.	8d\L	.	(16d/LL	.	(16a\LL	.	8D\L	.	.	8D/L	-lei-	.	4f\)	.	.	8b-\L	.	.	8b-\L	.	8dd\L	.	(16d/LL	.	8b-\L	.
.	.	.	.	.	16f/)	.	16b-\)	.	.	.	.	.	.	.	.	.	.	.	.	.	.	.	.	.	16f/)	.	.	.
.	.	.	.	.	.	.	.	.	.	.	.	.	.	.	.	.	.	.	.	.	.	.	.	.	.	.	8qqb-/	.
8C\	.	.	8c\	.	(16a/	.	(16b-\	.	8C\J)	.	.	8A/J	.	.	.	.	.	8cc\J)	.	.	8f\	.	8cc\	.	(16a/	.	8cc\	.
.	.	.	.	.	16f/)	.	16cc\)	.	.	.	.	.	.	.	.	.	.	.	.	.	.	.	.	.	16f/)	.	.	.
.	.	.	.	.	.	.	.	.	.	.	.	.	.	.	.	.	.	.	.	.	.	.	.	.	.	.	8qqcc/	.
8BB-\J	.	.	8B-\J	.	(16b-/	.	(16cc\	.	8BB-/	-son	.	8B-\	-son	.	8f\	-son	.	8dd\	-son	.	8d\J	.	8b-\J	.	(16b-/	.	8dd\J	.
.	.	.	.	.	16f/JJ)	.	16dd\JJ)	.	.	.	.	.	.	.	.	.	.	.	.	.	.	.	.	.	16f/JJ)	.	.	.
!	!	!	!	!	!LO:LB:g=original	!	!	!	!LO:LB:g=original	!	!	!	!	!	!LO:LB:g=original	!	!	!	!	!	!	!	!	!	!	!	!	!
=17	=17	=17	=17	=17	=17	=17	=17	=17	=17	=17	=17	=17	=17	=17	=17	=17	=17	=17	=17	=17	=17	=17	=17	=17	=17	=17	=17	=17
.	.	.	.	.	.	.	.	.	.	.	.	.	.	.	.	.	.	16qqff/	.	.	.	.	.	.	.	.	8qqff/	.
!	!	!LO:DY:t=pia	!	!LO:DY:t=pia	!	!LO:DY:a:t=pia	!	!LO:DY:t=pia&colon;	!	!	!LO:DY:a:t=pia	!	!	!LO:DY:a:t=pia&colon;	!	!	!LO:DY:a:t=piano:color=red	!	!	!LO:DY:b:t=piano:color=red	!	!LO:DY:t=pia	!	!LO:DY:t=pia	!	!LO:DY:t=pia	!	!
4AA/	5 3	p	4A/	p	(16cc\LL	p	(16ff\LL	p	4AA/	Ky-	p	4c\	Ky-	p	4f\	Ky-	p	4ee-\	Ky-	p	4f/	p	4cc\	p	4cc\	p	4ee-\	.
.	.	.	.	.	16f\)	.	16ee-\)	.	.	.	.	.	.	.	.	.	.	.	.	.	.	.	.	.	.	.	.	.
.	.	.	.	.	(16cc\	.	16ee-'\	.	.	.	.	.	.	.	.	.	.	.	.	.	.	.	.	.	.	.	.	.
.	.	.	.	.	16f\)	.	16ee-'\	.	.	.	.	.	.	.	.	.	.	.	.	.	.	.	.	.	.	.	.	.
8AA/	.	.	8A/	.	(16cc\	.	16ee-'\	.	8AA/	-ri-	.	8c\	-ri-	.	8f\	-ri-	.	8ee-\	-ri-	.	8f/	.	8cc\	.	8cc\	.	8ee-\	.
.	.	.	.	.	16f\JJ)	.	16ee-'\JJ	.	.	.	.	.	.	.	.	.	.	.	.	.	.	.	.	.	.	.	.	.
.	.	.	.	.	.	.	.	.	.	.	.	.	.	.	.	.	.	.	.	.	.	.	.	.	.	.	8qqee-/	.
!	!	!	!	!	!	!	!	!	!	!	!	!LO:TX:t=P:problem:mixed beam	!	!	!	!	!	!	!	!	!	!	!	!	!LO:TX:t=P:problem:mixed beam	!	!	!
8BB-/L	3	.	8B-\L	.	(16b-/LL	.	(16ee-\LL	.	8BB-/L	-e	.	8B-\L	-e	.	4f\	-e	.	8dd\L	-e	.	8d/L	.	8b-\L	.	8b-\L	.	8dd\L	.
.	.	.	.	.	16f/)	.	16dd\)	.	.	.	.	.	.	.	.	.	.	.	.	.	.	.	.	.	.	.	.	.
.	.	.	.	.	.	.	.	.	.	.	.	.	.	.	.	.	.	.	.	.	.	.	.	.	.	.	8qqdd/	.
8C/	.	.	8c\	.	(16e-/	.	(16dd\	.	8C/J	.	.	8E-/J	.	.	.	.	.	8cc\J	.	.	8f/	.	8cc\	.	8e-/	.	8cc\	.
.	.	.	.	.	16f/)	.	16cc\)	.	.	.	.	.	.	.	.	.	.	.	.	.	.	.	.	.	.	.	.	.
.	.	.	.	.	.	.	.	.	.	.	.	.	.	.	.	.	.	.	.	.	.	.	.	.	.	.	8qqcc/	.
8D/J	.	.	8d\J	.	(16d/	.	(16cc\	.	8D\	e	.	8D/	e-	.	8f\	e-	.	8b-\	e-	.	8b-/J	.	8dd\J	.	8d/J	.	8b-\J	.
.	.	.	.	.	16f/JJ)	.	16b-\JJ)	.	.	.	.	.	.	.	.	.	.	.	.	.	.	.	.	.	.	.	.	.
=18	=18	=18	=18	=18	=18	=18	=18	=18	=18	=18	=18	=18	=18	=18	=18	=18	=18	=18	=18	=18	=18	=18	=18	=18	=18	=18	=18	=18
.	.	.	.	.	.	.	.	.	.	.	.	.	.	.	.	.	.	16qqb-/	.	.	.	.	.	.	.	.	8qqb-/	.
4E-\	4 2	.	4e-\	.	(16c/LL	.	(16b-\LL	.	4.E-\	-lei-	.	4.C/	-lei-	.	(4.f\	-lei-	.	(4.a\	-lei-	.	4f/	.	4cc\	.	4c/	.	4a\	.
.	.	.	.	.	16f/)	.	16a\)	.	.	.	.	.	.	.	.	.	.	.	.	.	.	.	.	.	.	.	.	.
.	.	.	.	.	(16c/	.	16a'\	.	.	.	.	.	.	.	.	.	.	.	.	.	.	.	.	.	.	.	.	.
.	.	.	.	.	16f/)	.	16a'\	.	.	.	.	.	.	.	.	.	.	.	.	.	.	.	.	.	.	.	.	.
8E-\	.	.	8e-\	.	(16c/	.	16a'\	.	.	.	.	.	.	.	.	.	.	.	.	.	8f/	.	8cc\	.	8c/	.	8a\	.
.	.	.	.	.	16f/JJ)	.	16a'\JJ	.	.	.	.	.	.	.	.	.	.	.	.	.	.	.	.	.	.	.	.	.
.	.	.	.	.	.	.	.	.	.	.	.	.	.	.	.	.	.	.	.	.	.	.	.	.	.	.	8qqa/	.
!	!	!	!	!	!	!	!	!	!	!	!	!LO:TX:t=P:problem:mixed beam	!	!	!	!	!	!	!	!	!	!	!	!	!LO:TX:t=P:problem:mixed beam	!	!	!
8D/L	6	.	8d\L	.	(16d/LL	.	(16a\LL	.	8D\L	.	.	8D/L	.	.	4f\)	.	.	8b-\L	.	.	8b-\L	.	8dd\L	.	8d/L	.	8b-\L	.
.	.	.	.	.	16f/)	.	16b-\)	.	.	.	.	.	.	.	.	.	.	.	.	.	.	.	.	.	.	.	.	.
.	.	.	.	.	.	.	.	.	.	.	.	.	.	.	.	.	.	.	.	.	.	.	.	.	.	.	8qqb-/	.
8C/	.	.	8c\	.	(16a/	.	(16b-\	.	8C\J	.	.	8A\J	.	.	.	.	.	8cc\J)	.	.	8f\	.	8cc\	.	8a\	.	8cc\	.
.	.	.	.	.	16f/)	.	16cc\)	.	.	.	.	.	.	.	.	.	.	.	.	.	.	.	.	.	.	.	.	.
.	.	.	.	.	.	.	.	.	.	.	.	.	.	.	.	.	.	.	.	.	.	.	.	.	.	.	8qqcc/	.
8BB-/J	.	.	8B-\J	.	(16b-/	.	(16cc\	.	8BB-/	-son	.	8B-\	-son	.	8f\	-son	.	8dd\	-son	.	8d\J	.	8b-\J	.	8b-\J	.	8dd\J	.
.	.	.	.	.	16f/JJ)	.	16dd\JJ)	.	.	.	.	.	.	.	.	.	.	.	.	.	.	.	.	.	.	.	.	.
=19	=19	=19	=19	=19	=19	=19	=19	=19	=19	=19	=19	=19	=19	=19	=19	=19	=19	=19	=19	=19	=19	=19	=19	=19	=19	=19	=19	=19
.	.	.	.	.	.	.	.	.	.	.	.	.	.	.	.	.	.	.	.	.	.	.	.	.	32qqdd/	.	.	.
!	!	!	!	!	!	!	!	!	!	!	!	!	!	!	!	!	!LO:DY:a:t=fort:color=red	!	!	!	!	!	!	!	!	!	!	!
4AA/	5	.	4A/	.	(16cc\LL	.	(16ff\LL	.	4r	.	.	4r	.	.	4r	.	f	4r	.	.	4f/	.	(4cc\	.	8cc\L	.	(16ff\LL	.
.	.	.	.	.	16f\)	.	16ee-\)	.	.	.	.	.	.	.	.	.	.	.	.	.	.	.	.	.	.	.	16ee-\)	.
!	!	!	!	!	!	!	!	!	!	!	!LO:DY:a:t=for	!	!	!	!	!	!	!	!	!	!	!	!	!	!	!	!	!
.	.	.	.	.	(16cc\	.	16ee-'\	.	.	.	f	.	.	.	.	.	.	.	.	.	.	.	.	.	8cc\J	.	16ee-\|	.
.	.	.	.	.	16f\)	.	16ee-'\JJ	.	.	.	.	.	.	.	.	.	.	.	.	.	.	.	.	.	.	.	16ee-\JJ|	.
!	!	!	!	!LO:DY:t=fort	!	!LO:DY:a:t=fort	!	!LO:DY:t=fort	!	!	!	!	!	!	!	!	!	!	!	!LO:DY:a:t=forte:color=red	!	!LO:DY:t=fort	!	!	!	!LO:DY:t=fort	!	!LO:DY:t=fort
16BB-/LL	.	.	8f\	f	16cc\	f	(16ee-\LL	f	16A\LL	e-	.	8f\	e-	.	16cc\LL	e-	.	16ee-\LL	e-	f	8b-\	f	8dd\)	.	(16cc\LL	f	(16ee-\LL	f
16D/JJ	.	.	.	.	16b-\JJ	.	16dd\JJ)	.	16B-\JJ	.	.	.	.	.	16b-\JJ	.	.	16dd\JJ	.	.	.	.	.	.	16b-\JJ)	.	16dd\JJ)	.
*	*	*	*	*	*	*	*	*	*	*	*	*	*	*	*	*	*	*	*	*	*	*	*	*	*custos:b	*	*	*
!LO:TX:t=P:problem:mixed beam	!	!	!	!	!	!	!	!	!	!	!	!LO:LB:g=original	!	!	!	!	!	!	!	!	!	!	!	!LO:DY:t=forte	!LO:LB:g=original	!	!	!
8F\L	6 4	.	8f\L|	.	8b-\	.	(8dd\L	.	8F\	-lei-	.	8f\	-lei-	.	8b-\	-lei-	.	8dd\	-lei-	.	8b-/L	.	(8dd\	f	(8b-/L	.	(8dd\L	.
8FF/J	5 3	.	8f\J|	.	16a/LL|	.	16cc\L)|	.	8F\	-son	.	8f\	-son	.	8a\	-son	.	8cc\	-son	.	16f/L|	.	16cc/LL)|	.	16a/L)	.	16cc\L)	.
.	.	.	.	.	16f/|	.	16ff\|	.	.	.	.	.	.	.	.	.	.	.	.	.	16f/|	.	16f/|	.	16f/	.	16ff\|	.
8r	.	.	8r	.	16d/|	.	16dd\|	.	8r	.	.	8r	.	.	8r	.	.	8r	.	.	16d/|	.	16d/|	.	16e-/	.	16dd\|	.
.	.	.	.	.	16B-/JJ|	.	16b-\JJ|	.	.	.	.	.	.	.	.	.	.	.	.	.	16B-/JJ|	.	16B-/JJ|	.	16c/JJ	.	16b-\JJ|	.
=20	=20	=20	=20	=20	=20	=20	=20	=20	=20	=20	=20	=20	=20	=20	=20	=20	=20	=20	=20	=20	=20	=20	=20	=20	=20	=20	=20	=20
!	!	!	!	!	!	!	!LO:TX:t=P:problem:mixed beam	!	!	!	!	!	!	!	!	!	!	!	!	!	!	!	!	!	!	!	!	!
!	!	!	!	!	!	!	!	!	!LO:TX:a:t=4	!	!	!LO:TX:a:t=4	!	!	!	!	!	!	!	!	!	!	!LO:TX:t=P:problem:mixed beam	!	!LO:TX:t=P:problem:mixed beam	!	!	!
8F\L	5_ 3_	.	8r	.	8f/L	.	8ff\L|	.	0.r	.	.	0.r	.	.	4r	.	.	4r	.	.	8F/L	.	8f/L	.	8F/L	.	8ff\L	.
8C\	.	.	8c\L	.	8A/|	.	8f/|	.	.	.	.	.	.	.	.	.	.	.	.	.	8f/	.	8cc\|	.	8a\	.	8ff\	.
8AA\J	.	.	8c\J	.	8A/J|	.	8f/J|	.	.	.	.	.	.	.	8r	.	.	8r	.	.	8f/J	.	8cc\J|	.	8a\J	.	8ff\J	.
!LO:TX:t=P:problem:mixed beam	!	!	!	!	!	!	!	!	!	!	!	!	!	!	!	!	!	!	!	!	!	!	!	!	!	!	!	!
8FF/L	.	.	4c\	.	4A/	.	4f/|	.	.	.	.	.	.	.	8r	.	.	8r	.	.	4f/	.	4cc\|	.	4a\	.	4ff\	.
!	!	!	!	!	!	!	!	!	!	!	!	!	!	!	!	!	!	!LO:TX:a:t=Solo	!	!	!	!	!	!	!	!	!	!
8F\J	.	.	.	.	.	.	.	.	.	.	.	.	.	.	8r	.	.	8r	.	.	.	.	.	.	.	.	.	.
!	!	!	!	!	!	!LO:DY:a:t=pia	!LO:TX:a:i:t=dolce	!LO:DY:t=pia	!	!	!	!	!	!	!LO:TX:a:i:t=dolce:color=red	!	!	!	!	!	!	!	!	!	!	!	!	!
8r	X X	.	8r	.	(16f/LL	p	(16a/LL	p	.	.	.	.	.	.	(16f\LL	Chri-	.	(16a\LL	Chri-	.	8r	.	8r	.	8r	.	8r	.
!	!	!	!	!	!	!	!	!	!	!	!	!	!	!	!	!	!	!LO:TX:a:i:t=dolce:color=red	!	!	!	!	!	!	!	!	!	!
.	.	.	.	.	16g/JJ)	.	16b-/JJ)	.	.	.	.	.	.	.	16g\JJ)	.	.	16b-\JJ)	.	.	.	.	.	.	.	.	.	.
!	!	!	!	!	!	!	!	!	!	!	!	!	!	!	!	!	!	!	!	!	!LO:LB:g=original	!	!	!	!	!	!	!
=21	=21	=21	=21	=21	=21	=21	=21	=21	=21	=21	=21	=21	=21	=21	=21	=21	=21	=21	=21	=21	=21	=21	=21	=21	=21	=21	=21	=21
!LO:TX:b:i:rj:t=Solo	!	!	!	!LO:DY:rj:t=piano	!	!	!	!	!	!	!	!	!	!	!	!	!	!	!	!	!LO:TX:a:t=14	!	!LO:TX:a:t=14	!	!LO:TX:a:t=3	!	!LO:TX:a:t=3	!
8FF/L	5 3	.	8F/L	p	(4a/	.	(4cc\	.	.	.	.	.	.	.	4a\	-ste	.	4cc\	-ste	.	0.r	.	0.r	.	1.r	.	1.r	.
8AA/	.	.	8A/	.	.	.	.	.	.	.	.	.	.	.	.	.	.	.	.	.	.	.	.	.	.	.	.	.
8C/J	7 5	.	8c/J|	.	8g/)	.	8b-\)	.	.	.	.	.	.	.	8g\	X-	.	8b-\	X-	.	.	.	.	.	.	.	.	.
*	*	*	*	*	*	*	*custos:a	*	*	*	*	*	*	*	*	*	*	*	*	*	*	*	*	*	*	*	*	*
!	!	!	!	!	!	!	!LO:LB:g=original	!	!	!	!	!	!	!	!	!	!	!	!	!	!	!	!	!	!	!	!	!
!	!	!	!	!	!	!	!LO:TX:t=P:problem:mixed beam	!	!	!	!	!	!	!	!	!	!	!	!	!	!	!	!	!	!	!	!	!
4F\	3	.	4f\|	.	16f/LL|	.	(16a/LL	.	.	.	.	.	.	.	4f\	-te	.	4a\	-te	.	.	.	.	.	.	.	.	.
.	.	.	.	.	(16cc/	.	16aa\	.	.	.	.	.	.	.	.	.	.	.	.	.	.	.	.	.	.	.	.	.
.	.	.	.	.	16b-/	.	16gg\	.	.	.	.	.	.	.	.	.	.	.	.	.	.	.	.	.	.	.	.	.
.	.	.	.	.	16a/	.	16ff\)	.	.	.	.	.	.	.	.	.	.	.	.	.	.	.	.	.	.	.	.	.
8r	.	.	8r	.	16g/	.	16een\|	.	.	.	.	.	.	.	8r	.	.	8r	.	.	.	.	.	.	.	.	.	.
.	.	.	.	.	16a/JJ)	.	16ff\JJ|	.	.	.	.	.	.	.	.	.	.	.	.	.	.	.	.	.	.	.	.	.
!	!	!	!	!	!LO:LB:g=original	!	!	!	!	!	!	!	!	!	!	!	!	!LO:LB:g=original	!	!	!	!	!	!	!	!	!	!
=22	=22	=22	=22	=22	=22	=22	=22	=22	=22	=22	=22	=22	=22	=22	=22	=22	=22	=22	=22	=22	=22	=22	=22	=22	=22	=22	=22	=22
!LO:TX:t=P:problem:mixed beam	!	!	!	!	!	!	!	!	!	!	!	!	!	!	!	!	!	!	!	!	!	!	!	!	!	!	!	!
8FF/L	6_ 4_	.	4f\	.	(16a\LL	.	(16cc#X\LL	.	.	.	.	.	.	.	(16a\LL	X-	.	(16cc#X\LL	Chri-	.	.	.	.	.	.	.	.	.
.	.	.	.	.	16b-\J)	.	16dd\)	.	.	.	.	.	.	.	16b-\JJ)	.	.	16dd\JJ)	.	.	.	.	.	.	.	.	.	.
8F\	.	.	.	.	8b-\J	.	(16dd\	.	.	.	.	.	.	.	8b-\	-te	.	(16dd\LL	-ste	.	.	.	.	.	.	.	.	.
.	.	.	.	.	.	.	16ee-\JJ)	.	.	.	.	.	.	.	.	.	.	16ee-\JJ)	.	.	.	.	.	.	.	.	.	.
8F\J	.	.	8f\	.	(16dd\LL	.	(32gg\LLL	.	.	.	.	.	.	.	16dd\LL	e-	.	(32gg\LLL	e-	.	.	.	.	.	.	.	.	.
.	.	.	.	.	.	.	32ff\	.	.	.	.	.	.	.	.	.	.	32ff\	.	.	.	.	.	.	.	.	.	.
.	.	.	.	.	32cc\L	.	32ee-\	.	.	.	.	.	.	.	32cc\L	.	.	32ee-\	.	.	.	.	.	.	.	.	.	.
.	.	.	.	.	32b-\JJJ)	.	32dd\JJJ)	.	.	.	.	.	.	.	32b-\JJJ	.	.	32dd\JJJ)	.	.	.	.	.	.	.	.	.	.
!LO:TX:t=P:problem:mixed beam	!	!	!	!	!	!	!	!	!	!	!	!	!	!	!	!	!	!	!	!	!	!	!	!	!	!	!	!
8F\L	.	.	8f\L|	.	8b-\L	.	8dd\L	.	.	.	.	.	.	.	8b-\L|	-lei-	.	8dd\	-lei-	.	.	.	.	.	.	.	.	.
8FF/J	5 3	.	8f\J|	.	8a\J	.	8ccn\J	.	.	.	.	.	.	.	8a\J|	-son	.	8ccn\	-son	.	.	.	.	.	.	.	.	.
8r	.	.	8r	.	8r	.	8r	.	.	.	.	.	.	.	8r	.	.	8r	.	.	.	.	.	.	.	.	.	.
!LO:LB:g=original	!	!	!	!	!	!	!	!	!	!	!	!	!	!	!LO:LB:g=original	!	!	!	!	!	!	!	!	!	!	!	!	!
=23	=23	=23	=23	=23	=23	=23	=23	=23	=23	=23	=23	=23	=23	=23	=23	=23	=23	=23	=23	=23	=23	=23	=23	=23	=23	=23	=23	=23
4r	.	.	4r	.	(8g'/L	.	(8b-'\L	.	.	.	.	.	.	.	8g\	Chri-	.	8b-\	Chri-	.	.	.	.	.	2.r	.	2.r	.
.	.	.	.	.	8g'/	.	8b-'\	.	.	.	.	.	.	.	8g\	-ste	.	8b-\	-ste	.	.	.	.	.	.	.	.	.
8r	.	.	8r	.	8g'/J)	.	8b-'\J)	.	.	.	.	.	.	.	8g\	e-	.	8b-\	e-	.	.	.	.	.	.	.	.	.
8C/L	7 5	.	(4en\	fz	(4g/	fz	4b-\	fz	.	.	.	.	.	.	4g\	-lei-	.	4b-\	-lei-	.	.	.	.	.	.	.	.	.
8C#X/	.	.	.	.	.	.	.	.	.	.	.	.	.	.	.	.	.	.	.	.	.	.	.	.	.	.	.	.
8D/J	5 3	.	8f\)	.	8f/)	.	8a\	.	.	.	.	.	.	.	8f\	-son	.	8a\	-son	.	.	.	.	.	.	.	.	.
=24	=24	=24	=24	=24	=24	=24	=24	=24	=24	=24	=24	=24	=24	=24	=24	=24	=24	=24	=24	=24	=24	=24	=24	=24	=24	=24	=24	=24
!	!	!	!	!	!	!	!	!LO:DY:t=pia	!	!	!	!	!	!	!	!	!	!	!	!	!	!	!	!	!	!	!	!
8BB-/L	6	.	(8d\L	.	(16c/LL	.	(16a/LL	p	4r	.	.	4r	.	.	16c/LL	e-	.	16a\LL	e-	.	.	.	.	.	4r	.	4r	.
.	.	.	.	.	16B-/J)	.	16g/J)	.	.	.	.	.	.	.	16B-/JJ	.	.	16g\JJ	.	.	.	.	.	.	.	.	.	.
!	!	!	!	!	!	!	!	!	!	!	!	!LO:TX:a:i:t=Solo	!	!	!	!	!	!	!	!	!	!	!	!	!	!	!	!
8Cn/	4	.	8c\)	.	8A/	.	8f/	.	.	.	.	.	.	.	8A/	-lei-	.	8f/	-lei-	.	.	.	.	.	.	.	.	.
!	!	!	!	!	!	!	!	!	!LO:TX:a:i:t=Solo	!	!	!	!	!	!	!	!	!	!	!	!	!	!	!	!	!LO:DY:t=pia	!	!
8CC/J	n	.	8c\J|	.	8G/J	.	8en/J	.	8r	.	.	8r	.	.	8B-/	-son	.	8en/	-son	.	.	.	.	.	8r	p	8r	.
!	!	!	!LO:LB:g=original	!	!	!	!	!	!	!	!	!	!	!	!	!	!	!	!	!	!	!	!	!	!	!	!	!LO:DY:t=pia
8FF/L	5 3	.	8F/L	.	(4a/	.	(4cc\	.	(4A\	Chri-	.	(4c\	Chri-	.	4r	.	.	4r	.	.	.	.	.	.	4a\	.	4cc\	p
8AA/	.	.	8A/	.	.	.	.	.	.	.	.	.	.	.	.	.	.	.	.	.	.	.	.	.	.	.	.	.
8C/J	7 5	.	8c/J	.	8g/)	.	8b-\)	.	8G\)	.	.	8B-\)	.	.	8r	.	.	8r	.	.	.	.	.	.	8g\	.	8b-\	.
!	!	!	!	!	!	!	!	!	!	!	!	!	!	!	!	!	!	!	!	!	!	!	!	!	!	!	!LO:LB:g=original	!
=25	=25	=25	=25	=25	=25	=25	=25	=25	=25	=25	=25	=25	=25	=25	=25	=25	=25	=25	=25	=25	=25	=25	=25	=25	=25	=25	=25	=25
!	!	!	!	!	!	!	!LO:TX:t=P:problem:mixed beam	!	!	!	!	!	!	!	!LO:TX:a:t=4	!	!	!LO:TX:a:t=3	!	!	!	!	!	!	!	!	!	!
4F\	3	.	4f\	.	16f/LL|	.	(16a/LL	.	8F\	-ste	.	8A\	-ste	.	0.r	.	.	1.r	.	.	0.r	.	0.r	.	4f/	.	4a\	.
.	.	.	.	.	(16cc/	.	16aa\	.	.	.	.	.	.	.	.	.	.	.	.	.	.	.	.	.	.	.	.	.
.	.	.	.	.	16b-/	.	16gg\	.	8r	.	.	8r	.	.	.	.	.	.	.	.	.	.	.	.	.	.	.	.
.	.	.	.	.	16a/	.	16ff\)	.	.	.	.	.	.	.	.	.	.	.	.	.	.	.	.	.	.	.	.	.
8r	.	.	8r	.	16g/	.	16een\|	.	8r	.	.	8r	.	.	.	.	.	.	.	.	.	.	.	.	8r	.	8r	.
.	.	.	.	.	16a/JJ)	.	16ff\JJ|	.	.	.	.	.	.	.	.	.	.	.	.	.	.	.	.	.	.	.	.	.
!LO:TX:t=P:problem:mixed beam	!	!	!	!	!	!	!	!	!	!	!	!	!	!	!	!	!	!	!	!	!	!	!	!	!	!	!	!
8FF/L	.	.	4f\	.	(16cc\LL	.	(16ee-X\LL	.	16c\LL	Chri-	.	16e-X\LL	Chri-	.	.	.	.	.	.	.	.	.	.	.	4b-\	.	4dd\	.
.	.	.	.	.	16b-\J)	.	16dd\J)	.	16B-\JJ	.	.	16d\JJ	.	.	.	.	.	.	.	.	.	.	.	.	.	.	.	.
8F\	.	.	.	.	8b-\J	.	8dd\J	.	8B-\	-ste	.	8d\	-ste	.	.	.	.	.	.	.	.	.	.	.	.	.	.	.
8F\J	.	.	8f\	.	(32een\LLL	.	(32gg\LLL	.	(16d\LL	e-	.	(32g\LLL	e-	.	.	.	.	.	.	.	.	.	.	.	8b-\	.	8dd\	.
.	.	.	.	.	32dd\	.	32ff\	.	.	.	.	32f\	.	.	.	.	.	.	.	.	.	.	.	.	.	.	.	.
.	.	.	.	.	32cc\	.	32een\	.	32c\L	.	.	32en\	.	.	.	.	.	.	.	.	.	.	.	.	.	.	.	.
.	.	.	.	.	32b-\JJJ)	.	32dd\JJJ)	.	32B-\JJJ)	.	.	32d\JJJ)	.	.	.	.	.	.	.	.	.	.	.	.	.	.	.	.
=26	=26	=26	=26	=26	=26	=26	=26	=26	=26	=26	=26	=26	=26	=26	=26	=26	=26	=26	=26	=26	=26	=26	=26	=26	=26	=26	=26	=26
!LO:TX:t=P:problem:mixed beam	!	!	!	!	!	!	!	!	!	!	!	!	!	!	!	!	!	!	!	!	!	!	!	!	!	!	!	!
8F\L	.	.	8f\L	.	8b-\L	.	8dd\L	.	8B-\	-lei-	.	8d\	-lei-	.	.	.	.	.	.	.	.	.	.	.	8b-\L	.	8dd\L	.
8FF/J	.	.	8f\J	.	8a\J	.	8cc\J	.	8A\	-son	.	8c\	-son	.	.	.	.	.	.	.	.	.	.	.	8a\J	.	8cc\J	.
8r	.	.	8r	.	8r	.	16r	.	8r	.	.	8r	.	.	.	.	.	.	.	.	.	.	.	.	8r	.	8r	.
.	.	.	.	.	.	.	16g/	.	.	.	.	.	.	.	.	.	.	.	.	.	.	.	.	.	.	.	.	.
!LO:TX:t=P:problem:mixed beam	!	!	!LO:TX:t=P:problem:mixed beam	!	!	!	!LO:LB:g=original	!	!LO:LB:g=original	!	!	!	!	!	!	!	!	!	!	!	!	!	!	!	!	!	!	!
8GG/L	n	.	8G/L	.	8r	.	(16gg\LL	.	8GG/	X-	.	(16g\LL	Chri-	.	.	.	.	.	.	.	.	.	.	.	4r	.	4r	.
.	.	.	.	.	.	.	16ff\)	.	.	.	.	16f\JJ)	.	.	.	.	.	.	.	.	.	.	.	.	.	.	.	.
8G\	.	.	8g\	.	16g/LL|	.	16een\|	.	16G\LL	-te	.	16en\LL	-ste	.	.	.	.	.	.	.	.	.	.	.	.	.	.	.
.	.	.	.	.	16f/|	.	16dd\|	.	16F\JJ	.	.	16d\JJ	.	.	.	.	.	.	.	.	.	.	.	.	.	.	.	.
8F\J	.	.	8g\J	.	(16en/	.	(16cc\	.	16En\LL	e-	.	16c\LL	e-	.	.	.	.	.	.	.	.	.	.	.	8r	.	8r	.
.	.	.	.	.	16d/JJ)	.	16bn\JJ)	.	16D\JJ	.	.	16Bn\JJ	.	.	.	.	.	.	.	.	.	.	.	.	.	.	.	.
!	!	!	!	!	!LO:LB:g=original	!	!	!	!	!	!	!	!	!	!	!	!	!	!	!	!	!	!	!	!	!	!	!
=27	=27	=27	=27	=27	=27	=27	=27	=27	=27	=27	=27	=27	=27	=27	=27	=27	=27	=27	=27	=27	=27	=27	=27	=27	=27	=27	=27	=27
8En\L	.	.	4g\	.	16en/LL	<	(32cc\LLL	<	16En\LL	-lei-	.	(32c\LLL	-lei-	.	.	.	.	2.r	.	.	.	.	.	.	4r	.	4r	.
.	.	.	.	.	.	.	32ee-\)	.	.	.	.	32e-\	.	.	.	.	.	.	.	.	.	.	.	.	.	.	.	.
.	.	.	.	.	16bn/JJ	.	(32dd\	.	16Bn\	.	.	32d\	.	.	.	.	.	.	.	.	.	.	.	.	.	.	.	.
.	.	.	.	.	.	.	32ff\JJJ)	.	.	.	.	32f\JJJ	.	.	.	.	.	.	.	.	.	.	.	.	.	.	.	.
8C\J	.	.	.	.	(16cc\LL	.	(32ee-\LLL	.	16c\	.	.	32e-\LLL	.	.	.	.	.	.	.	.	.	.	.	.	.	.	.	.
.	.	.	.	.	.	.	32gg\)	.	.	.	.	32g\	.	.	.	.	.	.	.	.	.	.	.	.	.	.	.	.
.	.	.	.	.	16dd\)	.	(32ff\	[	16d\JJ	.	.	32f\	.	.	.	.	.	.	.	.	.	.	.	.	.	.	.	.
.	.	.	.	.	.	.	32aa\JJJ)	.	.	.	.	32a\JJJ)	.	.	.	.	.	.	.	.	.	.	.	.	.	.	.	.
8r	.	.	8r	.	(16een\	[	16gg\LL|	.	16en\LL	-son	.	16g\LL	-son	.	.	.	.	.	.	.	.	.	.	.	8r	.	8r	.
.	.	.	.	.	16cc\JJ)	.	16ee-\JJ|	.	16c\JJ	.	.	16e-\JJ	.	.	.	.	.	.	.	.	.	.	.	.	.	.	.	.
!	!	!	!	!	!	!LO:DY:t=fort	!	!LO:DY:t=fort	!	!	!	!LO:LB:g=original	!	!	!	!	!	!	!	!	!	!	!	!	!	!	!	!
16C\LL	.	.	(8a\L	.	16g/LL	f	(16ee-\LL	f	16G\LL	e-	.	16e-\LL	e-	.	.	.	.	.	.	.	.	.	.	.	(16g/LL	.	(16eeX\LL	.
16F\JJ	.	.	.	.	16f/J	.	16dd\J)	.	16F\JJ	.	.	16d\JJ	.	.	.	.	.	.	.	.	.	.	.	.	16f/J)	.	16dd\J)	.
!LO:TX:t=P:problem:mixed beam	!	!	!	!	!	!	!	!	!	!	!	!	!	!	!	!	!	!	!	!	!	!	!	!	!	!	!	!
8G\L	.	.	8g\)	.	8en/	.	8cc\	.	8En\L	-le-	.	8c\L	-lei-	.	.	.	.	.	.	.	.	.	.	.	8eX/	.	8cc\	.
8GG/J	n	.	8g\J	.	8d/J	[[	8bn\J	[[	8D\J	-i-	.	8Bn\J	.	.	.	.	.	.	.	.	.	.	.	.	8d/J	.	8bX\J	.
=28	=28	=28	=28	=28	=28	=28	=28	=28	=28	=28	=28	=28	=28	=28	=28	=28	=28	=28	=28	=28	=28	=28	=28	=28	=28	=28	=28	=28
8C/L	.	.	8g\L	.	8d/L	.	(8b-\L	.	8D\L	-son	.	8B-\L	-son	.	.	.	.	4r	.	.	.	.	.	.	8d/L	.	(8b-\L	.
8GG/	.	.	8g\J	.	8e-/J	.	8cc\J)	.	8E-\J	.	.	8c\J	.	.	.	.	.	.	.	.	.	.	.	.	8e-/J	.	8cc\J)	.
!	!	!	!	!	!	!LO:DY:t=pia	!	!LO:DY:t=pia	!	!	!	!	!	!	!	!	!	!	!	!	!	!	!	!	!	!	!	!
8CC/J	.	.	8r	.	8r	p	8r	p	8r	.	.	8r	.	.	.	.	.	8r	.	.	.	.	.	.	8r	.	8r	.
8A\L	3	.	4d\	.	4a/	.	4cc\	.	4r	.	.	4r	.	.	.	.	.	4cc\	Chri-	.	.	.	.	.	4r	.	4r	.
8F#X\	.	.	.	.	.	.	.	.	.	.	.	.	.	.	.	.	.	.	.	.	.	.	.	.	.	.	.	.
8D\J	#	.	8d\	.	8f#X/	.	(16dd\LL	.	8r	.	.	8r	.	.	.	.	.	(16dd\LL	-ste	.	.	.	.	.	8r	.	8r	.
.	.	.	.	.	.	.	16a\JJ)	.	.	.	.	.	.	.	.	.	.	16a\JJ)	.	.	.	.	.	.	.	.	.	.
=29	=29	=29	=29	=29	=29	=29	=29	=29	=29	=29	=29	=29	=29	=29	=29	=29	=29	=29	=29	=29	=29	=29	=29	=29	=29	=29	=29	=29
!LO:TX:t=P:problem:mixed beam	!	!	!	!	!	!	!	!	!LO:TX:a:t=2	!	!	!LO:TX:a:t=1	!	!	!	!	!	!	!	!	!	!	!	!	!LO:TX:a:t=6	!	!LO:TX:a:t=6.	!
8G\L	7	.	8d\L	.	8a/L	.	(8cc\L	.	1.r	.	.	2.r	.	.	4r	.	.	8cc\	X-	.	0.r	.	0.r	.	0.r	.	0.r	.
!	!	!	!	!LO:DY:t=f&colon;	!	!	!	!	!	!	!	!	!	!	!	!	!	!	!	!	!	!	!	!	!	!	!	!
16GG/L	-	.	16d\L|	f	8g/J	.	8b-X\J)	.	.	.	.	.	.	.	.	.	.	8b-X\	-te	.	.	.	.	.	.	.	.	.
16D/|	.	.	16d\JJ|	.	.	.	.	.	.	.	.	.	.	.	.	.	.	.	.	.	.	.	.	.	.	.	.	.
!	!	!	!	!	!	!	!	!	!	!	!	!	!	!	!	!	!	!LO:LB:g=original	!	!	!	!	!	!	!	!	!	!
16BB-/|	.	.	16B-/LL|	.	8r	.	8r	.	.	.	.	.	.	.	8r	.	.	8r	.	.	.	.	.	.	.	.	.	.
16GG/JJ|	.	.	16G/JJ|	.	.	.	.	.	.	.	.	.	.	.	.	.	.	.	.	.	.	.	.	.	.	.	.	.
!	!	!	!	!LO:DY:t=p&colon;	!	!	!	!	!	!	!	!	!	!	!	!	!	!	!	!	!	!	!	!	!	!	!	!
4D\	.	.	4d\	p	(16d/LL	.	(16b-/LL	.	.	.	.	.	.	.	16b-\LL	e-	.	4r	.	.	.	.	.	.	.	.	.	.
.	.	.	.	.	16c/J)	.	16a/J)	.	.	.	.	.	.	.	16a\JJ	.	.	.	.	.	.	.	.	.	.	.	.	.
.	.	.	.	.	8B-/	.	8g/	.	.	.	.	.	.	.	8g\L	-le-	.	.	.	.	.	.	.	.	.	.	.	.
8DD/	#	.	8d\	.	8A/J	.	8f#X/J	.	.	.	.	.	.	.	8f#X\J	-i-	.	8r	.	.	.	.	.	.	.	.	.	.
=30	=30	=30	=30	=30	=30	=30	=30	=30	=30	=30	=30	=30	=30	=30	=30	=30	=30	=30	=30	=30	=30	=30	=30	=30	=30	=30	=30	=30
!LO:TX:t=P:problem:mixed beam	!	!	!	!	!	!	!	!	!	!	!	!	!	!	!	!	!	!LO:TX:a:t=2	!	!	!	!	!	!	!	!	!	!
8GG/L	-	.	4d\	.	8B-/	.	8g/	.	.	.	.	4r	.	.	4g\	-son	.	1.r	.	.	.	.	.	.	.	.	.	.
8G\J	.	.	.	.	8r	.	8r	.	.	.	.	.	.	.	.	.	.	.	.	.	.	.	.	.	.	.	.	.
8r	.	.	8r	.	8r	.	(16g/LL	.	.	.	.	(16G/LL	Chri-	.	8r	.	.	.	.	.	.	.	.	.	.	.	.	.
.	.	.	.	.	.	.	16a/JJ)	.	.	.	.	16A/JJ)	.	.	.	.	.	.	.	.	.	.	.	.	.	.	.	.
8G\L	3	.	4c\	.	4g/	.	4b-X\	.	.	.	.	4B-X\	-ste	.	4r	.	.	.	.	.	.	.	.	.	.	.	.	.
8E-\	.	.	.	.	.	.	.	.	.	.	.	.	.	.	.	.	.	.	.	.	.	.	.	.	.	.	.	.
8C\J	n	.	8c\	.	8en/	.	(16cc\LL	.	.	.	.	(16c\LL	e-	.	8r	.	.	.	.	.	.	.	.	.	.	.	.	.
.	.	.	.	.	.	.	16g\JJ)	.	.	.	.	16G\JJ)	.	.	.	.	.	.	.	.	.	.	.	.	.	.	.	.
=31	=31	=31	=31	=31	=31	=31	=31	=31	=31	=31	=31	=31	=31	=31	=31	=31	=31	=31	=31	=31	=31	=31	=31	=31	=31	=31	=31	=31
!	!	!	!	!	!	!	!	!	!	!	!	!	!	!	!LO:TX:a:t=1	!	!	!	!	!	!	!	!	!	!	!	!	!
8F/L	7	.	8c\L	.	8g/L	.	8b-\L|	.	4r	.	.	8B-\	-lei-	.	2.r	.	.	.	.	.	.	.	.	.	.	.	.	.
!	!	!	!	!LO:DY:t=f&colon;	!	!	!	!	!	!	!	!	!	!	!	!	!	!	!	!	!	!	!	!	!	!	!	!
16FF/L	.	.	16c\L|	f	8f/J	.	8a\J|	.	.	.	.	8A\	-son	.	.	.	.	.	.	.	.	.	.	.	.	.	.	.
16C/|	.	.	16c\JJ|	.	.	.	.	.	.	.	.	.	.	.	.	.	.	.	.	.	.	.	.	.	.	.	.	.
16AA/|	.	.	16An/LL|	.	8r	.	8r	.	8r	.	.	8r	.	.	.	.	.	.	.	.	.	.	.	.	.	.	.	.
16FF/JJ|	.	.	16F/JJ|	.	.	.	.	.	.	.	.	.	.	.	.	.	.	.	.	.	.	.	.	.	.	.	.	.
!	!	!	!	!LO:DY:t=p&colon;	!	!	!	!	!	!	!	!	!	!	!	!	!	!	!	!	!	!	!	!	!	!	!	!
8BB-X/L	6	.	8B-/L	p	8.d/L	.	(16g\LL	.	16G\LL	Chri-	.	4r	.	.	.	.	.	.	.	.	.	.	.	.	.	.	.	.
.	.	.	.	.	.	.	16dd\	.	16d\JJ	.	.	.	.	.	.	.	.	.	.	.	.	.	.	.	.	.	.	.
8GG/	.	.	8d/	.	.	.	16cc\)	.	16c\LL	-ste	.	.	.	.	.	.	.	.	.	.	.	.	.	.	.	.	.	.
.	.	.	.	.	16d/Jk|	.	16b-\|	.	16B-\JJ	.	.	.	.	.	.	.	.	.	.	.	.	.	.	.	.	.	.	.
8BB-/J	.	.	8d/J	.	16c/LL|	.	16a\|	.	16A\LL	e-	.	8r	.	.	.	.	.	.	.	.	.	.	.	.	.	.	.	.
.	.	.	.	.	16B-/JJ|	.	16g\JJ|	.	16G\JJ	.	.	.	.	.	.	.	.	.	.	.	.	.	.	.	.	.	.	.
!	!	!	!LO:LB:g=original	!	!	!	!LO:LB:g=original	!	!	!	!	!	!	!	!	!	!	!	!	!	!	!	!	!	!	!	!	!
=32	=32	=32	=32	=32	=32	=32	=32	=32	=32	=32	=32	=32	=32	=32	=32	=32	=32	=32	=32	=32	=32	=32	=32	=32	=32	=32	=32	=32
!	!	!	!	!	!	!	!	!	!	!	!	!	!	!	!	!	!LO:DY:a:t=pia:color=red	!	!	!	!	!	!	!	!	!	!	!
8C/L	4	.	8c\L	.	8A/L	.	8f/L	.	8F\	-lei-	.	4r	.	.	4r	.	p	4r	.	.	.	.	.	.	.	.	.	.
8CC/J	3	.	8c\J	.	8G/J	.	8en/J	.	8En\	-son	.	.	.	.	.	.	.	.	.	.	.	.	.	.	.	.	.	.
!	!	!	!	!	!	!	!	!	!	!	!	!	!	!	!	!	!	!	!	!LO:DY:a:t=pia:color=red	!	!	!	!	!	!	!	!
8r	.	.	8r	.	(8r	.	(16a\LL	.	8r	.	.	8r	.	.	8r	.	.	8r	.	p	.	.	.	.	.	.	.	.
.	.	.	.	.	.	.	16b-\JJ)	.	.	.	.	.	.	.	.	.	.	.	.	.	.	.	.	.	.	.	.	.
8r	.	.	[4.c\	.	4.a/	.	(4.cc\	.	(4.F\	Chri-	.	(4.c\	Chri-	.	(4.a\	Chri-	.	(4.cc\	Chri-	.	.	.	.	.	.	.	.	.
8FL 8FF/	5 3	.	.	.	.	.	.	.	.	.	.	.	.	.	.	.	.	.	.	.	.	.	.	.	.	.	.	.
8FJ 8FF/	.	.	.	.	.	.	.	.	.	.	.	.	.	.	.	.	.	.	.	.	.	.	.	.	.	.	.	.
!	!	!	!	!	!LO:LB:g=original	!	!	!	!	!	!	!	!	!	!	!	!	!	!	!	!	!	!	!	!	!	!	!
=33	=33	=33	=33	=33	=33	=33	=33	=33	=33	=33	=33	=33	=33	=33	=33	=33	=33	=33	=33	=33	=33	=33	=33	=33	=33	=33	=33	=33
*	*	*	*2\right	*	*	*	*	*	*	*	*	*	*	*	*	*	*	*	*	*	*	*	*	*	*	*	*	*
8r	.	.	2.c\]	.	4.b-\	.	4.een\	.	4.G\)	.	.	4.c\)	.	.	4.b-\)	.	.	4.een\)	.	.	1.r	.	1.r	.	1.r	.	1.r	.
8GL 8GG/	6\ 3	.	.	.	.	.	.	.	.	.	.	.	.	.	.	.	.	.	.	.	.	.	.	.	.	.	.	.
8GJ 8GG/	.	.	.	.	.	.	.	.	.	.	.	.	.	.	.	.	.	.	.	.	.	.	.	.	.	.	.	.
8r	.	.	.	.	4.cc\)	.	4.ff\)	.	4.A\	-ste	.	4.c\	-ste	.	4.cc\	-ste	.	4.ff\	-ste	.	.	.	.	.	.	.	.	.
8AL 8AA/	6 3	.	.	.	.	.	.	.	.	.	.	.	.	.	.	.	.	.	.	.	.	.	.	.	.	.	.	.
8AJ 8AA/	.	.	.	.	.	.	.	.	.	.	.	.	.	.	.	.	.	.	.	.	.	.	.	.	.	.	.	.
!	!	!	!	!	!	!	!	!	!LO:LB:g=original	!	!	!	!	!	!	!	!	!	!	!	!	!	!	!	!	!	!	!
=34	=34	=34	=34	=34	=34	=34	=34	=34	=34	=34	=34	=34	=34	=34	=34	=34	=34	=34	=34	=34	=34	=34	=34	=34	=34	=34	=34	=34
*	*	*	*	*	*	*	*	*	*	*	*	*	*	*	*	*ij	*	*	*	*	*	*	*	*	*	*	*	*
!	!	!	!LO:TX:t=P:problem:mixed beam	!	!	!	!	!	!	!	!	!	!	!	!	!	!	!	!	!	!	!	!	!	!	!	!	!
8E-\L	5 3	.	8C/L	.	(16b-/LL	.	(16gg\LL	.	4En\	X-	.	4c\	X-	.	16b-\LL	Chri-	.	(16gg\LL	Chri-	.	.	.	.	.	.	.	.	.
.	.	.	.	.	16g/J)	.	16b-\J)	.	.	.	.	.	.	.	16g\J	.	.	16b-\J)	.	.	.	.	.	.	.	.	.	.
8C\	.	.	8c\	.	8g/	.	8b-\J	.	.	.	.	.	.	.	8g\J	.	.	8b-\J	.	.	.	.	.	.	.	.	.	.
8F\J	3	.	8c\J	.	8f/J	.	(16b-/LL	.	8F\	-te	.	8c\	-te	.	8f\	-ste	.	(16b-\LL	-ste	.	.	.	.	.	.	.	.	.
*	*	*	*	*	*	*	*	*	*	*	*	*	*	*	*	*Xij	*	*	*	*	*	*	*	*	*	*	*	*
.	.	.	.	.	.	.	16a/JJ)	.	.	.	.	.	.	.	.	.	.	16a\JJ)	.	.	.	.	.	.	.	.	.	.
!	!	!	!	!	!	!	!	!	!	!	!	!	!	!	!LO:LB:g=original	!	!	!	!	!	!	!	!	!	!	!	!	!
8BB-/L	6	.	8d\L	.	(16c/LL	.	(16a/LL	.	8B-\	e-	.	16c\LL	e-	.	8d\	e-	.	16a\LL	e-	.	.	.	.	.	.	.	.	.
.	.	.	.	.	16B-/J)	.	16g/J)	.	.	.	.	16B-\JJ	.	.	.	.	.	16g\JJ	.	.	.	.	.	.	.	.	.	.
!	!	!	!	!	!	!	!	!	!LO:TX:t=P:problem:mixed beam	!	!	!	!	!	!	!	!	!	!	!	!	!	!	!	!	!	!	!
8C/	4	.	8c\	.	8A/	.	8f/	.	8c\L	-lei-	.	8A\L	-lei-	.	4c\	-lei-	.	8f/L	-lei-	.	.	.	.	.	.	.	.	.
8CC/J	n	.	8c\J	.	8G/J	.	8en/J	.	8C/J	.	.	8G\J	.	.	.	.	.	8en/J	.	.	.	.	.	.	.	.	.	.
!	!	!	!	!	!	!	!	!	!	!	!	!	!	!	!	!	!	!	!	!	!	!	!LO:LB:g=original	!	!LO:LB:g=original	!	!	!
=35	=35	=35	=35	=35	=35	=35	=35	=35	=35	=35	=35	=35	=35	=35	=35	=35	=35	=35	=35	=35	=35	=35	=35	=35	=35	=35	=35	=35
!	!	!LO:DY:t=mezzoforteo	!	!	!	!	!	!	!	!	!	!	!	!	!	!	!	!	!	!	!	!LO:DY:a:t=pia	!	!	!	!	!	!LO:DY:t=mezzo forte
8FF/L	.	mf	4c\	.	8A/L	.	8f/	.	4F\	-son	.	4A\	-son	.	4c\	-son	.	4f/	-son	.	8F/L	p	8f/L	.	4r	.	4r	mf
8F\|	.	.	.	.	16f/L|	.	8r	.	.	.	.	.	.	.	.	.	.	.	.	.	8F/	.	8f/	.	.	.	.	.
!	!	!	!	!	!	!	!	!LO:DY:t=mezzo fort	!	!	!	!	!	!	!	!	!	!	!	!	!	!	!	!	!	!	!	!
.	.	.	.	.	16c/|	.	.	mf	.	.	.	.	.	.	.	.	.	.	.	.	.	.	.	.	.	.	.	.
!	!	!	!	!LO:DY:t=mezzo forto	!	!	!	!	!	!	!	!	!	!	!	!	!	!	!	!	!	!	!	!	!	!	!	!
8F\J|	.	.	8r	mf	16f/|	.	8ff\|	.	8r	.	.	8r	.	.	8r	.	.	8r	.	.	8F/J	.	8f/J	.	8r	.	8ff\	.
.	.	.	.	.	16a/JJ|	.	.	.	.	.	.	.	.	.	.	.	.	.	.	.	.	.	.	.	.	.	.	.
!	!	!	!	!	!	!LO:DY:t=mezzo forte	!	!	!	!	!	!LO:LB:g=original	!	!	!LO:TX:a:i:t=dolce:color=red	!	!	!LO:TX:a:i:t=dolce:color=red	!	!	!	!	!	!	!	!	!	!
8F\L	5_ 4_ 2_ 7_	.	8g\L|	.	(16b-\LL	mf	8gg\L|	.	4.C/	Chri-	.	4.B-\	Chri-	.	4.g\	Chri-	.	4.ee-\	Chri-	.	[>4.F/	.	4.f/	.	4.eX/	.	8gg\L	.
.	.	.	.	.	16cc\)	.	.	.	.	.	.	.	.	.	.	.	.	.	.	.	.	.	.	.	.	.	.	.
8F\	.	.	8g\|	.	(16b-\	.	(16een\L	.	.	.	.	.	.	.	.	.	.	.	.	.	.	.	.	.	.	.	(16eeX\L	.
.	.	.	.	.	16cc\)	.	16dd\	.	.	.	.	.	.	.	.	.	.	.	.	.	.	.	.	.	.	.	16dd\	.
8F\J	.	.	8g\J|	.	(16b-\	.	16ee\)	.	.	.	.	.	.	.	.	.	.	.	.	.	.	.	.	.	.	.	16ee\)	.
.	.	.	.	.	16cc\JJ)	.	16cc\JJ|	.	.	.	.	.	.	.	.	.	.	.	.	.	.	.	.	.	.	.	16cc\JJ|	.
=36	=36	=36	=36	=36	=36	=36	=36	=36	=36	=36	=36	=36	=36	=36	=36	=36	=36	=36	=36	=36	=36	=36	=36	=36	=36	=36	=36	=36
*^	*	*	*	*	*	*	*	*	*	*	*	*	*	*	*	*	*	*	*	*	*	*	*	*	*	*	*	*
*tremolo	*2\right	*	*	*tremolo	*	*	*	*	*	*	*	*	*	*	*	*	*	*	*	*	*	*	*	*	*	*	*	*	*
8F\L	2.FF\	x 5_ 3_ 8_	.	8f\L|	.	(16a\LL	.	8ff\L|	.	4.F\	-ste	.	4.c\	-ste	.	4.a\	-ste	.	4.ff\	-ste	.	2.F/_>	.	2.f/	.	8f\L|	.	8ff\L|	.
.	.	.	.	.	.	16cc\)	.	.	.	.	.	.	.	.	.	.	.	.	.	.	.	.	.	.	.	.	.	.	.
8F\	.	.	.	8f\|	.	(16a\	.	8aa\|	.	.	.	.	.	.	.	.	.	.	.	.	.	.	.	.	.	8a\|	.	8aa\|	.
.	.	.	.	.	.	16cc\)	.	.	.	.	.	.	.	.	.	.	.	.	.	.	.	.	.	.	.	.	.	.	.
8F\J	.	.	.	8f\J|	.	(16a\	.	8ccc\J|	.	.	.	.	.	.	.	.	.	.	.	.	.	.	.	.	.	8cc\J|	.	8ccc\J|	.
.	.	.	.	.	.	16cc\JJ)	.	.	.	.	.	.	.	.	.	.	.	.	.	.	.	.	.	.	.	.	.	.	.
*	*	*	*	*	*	*	*	*	*	*	*ij	*	*	*ij	*	*	*ij	*	*	*ij	*	*	*	*	*	*	*	*	*
8F\L	.	7_ 5_ 4_ 2_	.	8en\L|	.	(16g\LL	.	(8.ccc\L	.	4.c\	Chri-	.	4.en\	Chri-	.	4.g\	Chri-	.	4.b-\	Chri-	.	.	.	.	.	(8.cc\L	.	(8.ccc\L	.
.	.	.	.	.	.	16cc\)	.	.	.	.	.	.	.	.	.	.	.	.	.	.	.	.	.	.	.	.	.	.	.
8F\	.	.	.	8en\|	.	(16g\	.	.	.	.	.	.	.	.	.	.	.	.	.	.	.	.	.	.	.	.	.	.	.
.	.	.	.	.	.	16cc\)	.	16bbn\L)	.	.	.	.	.	.	.	.	.	.	.	.	.	.	.	.	.	16bX\L	.	16bbX\L	.
8F\J	.	.	.	8en\J|	.	(16g\	.	(16bb-X\	.	.	.	.	.	.	.	.	.	.	.	.	.	.	.	.	.	16b-\	.	16bb-\	.
.	.	.	.	.	.	16cc\JJ)	.	16gg\JJ)	.	.	.	.	.	.	.	.	.	.	.	.	.	.	.	.	.	16g\JJ)	.	16gg\JJ)	.
!	!	!	!	!	!	!	!	!	!	!	!	!	!	!	!	!	!	!	!	!	!	!	!	!	!	!	!	!LO:LB:g=original	!
=37	=37	=37	=37	=37	=37	=37	=37	=37	=37	=37	=37	=37	=37	=37	=37	=37	=37	=37	=37	=37	=37	=37	=37	=37	=37	=37	=37	=37	=37
8F\L	2.FF\	x 8_ 5_ 3_	.	8f\L|	.	(16a\LL	.	(8gg#X\L	.	4.F\	-ste	.	4.c\	-ste	.	4.f\	-ste	.	4.a\	-ste	.	2.F/_>	.	2.f/	.	8g#X/L	.	(8gg#X\L	.
*	*	*	*	*	*	*	*	*	*	*	*Xij	*	*	*Xij	*	*	*Xij	*	*	*Xij	*	*	*	*	*	*	*	*	*
.	.	.	.	.	.	16cc\)	.	.	.	.	.	.	.	.	.	.	.	.	.	.	.	.	.	.	.	.	.	.	.
8F\	.	.	.	8f\	.	(16a\	.	8aa\J)	.	.	.	.	.	.	.	.	.	.	.	.	.	.	.	.	.	8a/J	.	8aa\J)	.
.	.	.	.	.	.	16cc\)	.	.	.	.	.	.	.	.	.	.	.	.	.	.	.	.	.	.	.	.	.	.	.
8F\J	.	.	.	8f\J	.	(16a\	.	8ff\|	.	.	.	.	.	.	.	.	.	.	.	.	.	.	.	.	.	8f/	.	8ff\	.
.	.	.	.	.	.	16cc\JJ)	.	.	.	.	.	.	.	.	.	.	.	.	.	.	.	.	.	.	.	.	.	.	.
8F\L	.	5 4_ 2_ 7_	.	8g\L	.	(16b-\LL	.	8ggn\L|	.	4.C/	e-	.	(4.B-\	e-	.	(4.g\	e-	.	(4.ee-\	e-	.	.	.	.	.	4.eX/	.	8gg\L	.
.	.	.	.	.	.	16cc\)	.	.	.	.	.	.	.	.	.	.	.	.	.	.	.	.	.	.	.	.	.	.	.
8F\	.	.	.	8g\	.	(16b-\	.	(16een\L	.	.	.	.	.	.	.	.	.	.	.	.	.	.	.	.	.	.	.	(16eeX\L	.
.	.	.	.	.	.	16cc\)	.	16dd\	.	.	.	.	.	.	.	.	.	.	.	.	.	.	.	.	.	.	.	16dd\	.
8F\J	.	.	.	8g\J	.	(16b-\	.	16ee\	.	.	.	.	.	.	.	.	.	.	.	.	.	.	.	.	.	.	.	16ee\)	.
.	.	.	.	.	.	16cc\JJ)	.	16cc\JJ)	.	.	.	.	.	.	.	.	.	.	.	.	.	.	.	.	.	.	.	16cc\JJ|	.
*Xtremolo	*	*	*	*	*	*	*	*	*	*	*	*	*	*	*	*	*	*	*	*	*	*	*	*	*	*	*	*	*
!LO:LB:g=original	!	!	!	!	!	!	!	!LO:LB:g=original	!	!	!	!	!	!	!	!	!	!	!	!	!	!	!	!	!	!	!	!	!
=38	=38	=38	=38	=38	=38	=38	=38	=38	=38	=38	=38	=38	=38	=38	=38	=38	=38	=38	=38	=38	=38	=38	=38	=38	=38	=38	=38	=38	=38
8F\L	2.FF\	x 5_ 3_ 8_	.	8f\L	.	(16a\LL	.	8ff\L|	.	4.F\	.	.	4.c\)	.	.	4.a\)	.	.	4.ff\)	.	.	2.F/_>	.	2.f/	.	8f\L|	.	8ff\L|	.
.	.	.	.	.	.	16cc\)	.	.	.	.	.	.	.	.	.	.	.	.	.	.	.	.	.	.	.	.	.	.	.
8F\	.	.	.	8f\	.	(16a\	.	8aa\|	.	.	.	.	.	.	.	.	.	.	.	.	.	.	.	.	.	8a\|	.	8aa\|	.
.	.	.	.	.	.	16cc\)	.	.	.	.	.	.	.	.	.	.	.	.	.	.	.	.	.	.	.	.	.	.	.
8F\J	.	.	.	8f\J	.	(16a\	.	8ccc\J|	.	.	.	.	.	.	.	.	.	.	.	.	.	.	.	.	.	8cc\J|	.	8ccc\J|	.
.	.	.	.	.	.	16cc\JJ)	.	.	.	.	.	.	.	.	.	.	.	.	.	.	.	.	.	.	.	.	.	.	.
*tremolo	*	*	*	*	*	*	*	*	*	*	*	*	*	*	*	*	*	*	*	*	*	*	*	*	*	*	*	*	*
!	!	!	!	!	!	!LO:LB:g=original	!	!	!	!	!	!	!	!	!	!	!	!	!	!	!	!	!	!	!	!	!	!	!
8F\L	.	7_ 5_ 4_ 2_	.	8en\L	.	(16g/LL	.	(8.ccc\L|	.	4.c\	-lei-	.	4.e-\	-lei-	.	4.g\	-lei-	.	4.b-\	-lei-	.	.	.	.	.	(8.cc\L	.	(8.ccc\L	.
.	.	.	.	.	.	16cc/)	.	.	.	.	.	.	.	.	.	.	.	.	.	.	.	.	.	.	.	.	.	.	.
8F\	.	.	.	8en\	.	(16g/	.	.	.	.	.	.	.	.	.	.	.	.	.	.	.	.	.	.	.	.	.	.	.
.	.	.	.	.	.	16cc/)	.	16bbn\L	.	.	.	.	.	.	.	.	.	.	.	.	.	.	.	.	.	16bX\L	.	16bbX\L	.
8F\J	.	.	.	8en\J	.	(16g/	.	16bb-X\	.	.	.	.	.	.	.	.	.	.	.	.	.	.	.	.	.	16b-\	.	16bb-\	.
.	.	.	.	.	.	16cc/JJ)	.	16gg\JJ)	.	.	.	.	.	.	.	.	.	.	.	.	.	.	.	.	.	16g\JJ)	.	16gg\JJ)	.
*Xtremolo	*	*	*	*Xtremolo	*	*	*	*	*	*	*	*	*	*	*	*	*	*	*	*	*	*	*	*	*	*	*	*	*
*v	*v	*	*	*	*	*	*	*	*	*	*	*	*	*	*	*	*	*	*	*	*	*	*	*	*	*	*	*	*
!	!	!	!	!	!	!	!	!	!	!	!	!	!	!	!	!	!	!LO:LB:g=original	!	!	!	!	!	!	!	!	!	!
=39	=39	=39	=39	=39	=39	=39	=39	=39	=39	=39	=39	=39	=39	=39	=39	=39	=39	=39	=39	=39	=39	=39	=39	=39	=39	=39	=39	=39
!	!	!	!	!	!	!LO:DY:t=pia	!	!LO:DY:t=pia	!	!	!	!	!	!	!	!	!	!	!	!	!	!	!	!	!	!	!	!
4F 4FF/	x 8 5 3	.	4f\	.	(8cc\L	p	(8aa\L	p	4F\	-son	.	4c\	-son	.	4f\	-son	.	4a\	-son	.	4F/]	.	4f/	.	4f/	.	4aa\	.
.	.	.	.	.	8dd\	.	8ff\	.	.	.	.	.	.	.	.	.	.	.	.	.	.	.	.	.	.	.	.	.
8r	.	.	8r	.	8cc\J	.	8een\J	.	8r	.	.	8r	.	.	8r	.	.	8r	.	.	8r	.	8r	.	8r	.	8r	.
4r	.	.	4r	.	8b-\L	.	8dd\L	.	4r	.	.	4r	.	.	4r	.	.	4r	.	.	4r	.	4r	.	4r	.	4r	.
.	.	.	.	.	8a\	.	8cc\	.	.	.	.	.	.	.	.	.	.	.	.	.	.	.	.	.	.	.	.	.
8r	.	.	8r	.	8g\J)	.	8b-\J)	.	8r	.	.	8r	.	.	8r	.	.	8r	.	.	8r	.	8r	.	8r	.	8r	.
=40	=40	=40	=40	=40	=40	=40	=40	=40	=40	=40	=40	=40	=40	=40	=40	=40	=40	=40	=40	=40	=40	=40	=40	=40	=40	=40	=40	=40
!	!	!	!	!LO:DY:t=pia	!	!	!	!	!LO:TX:a:t=1	!	!	!LO:TX:a:t=1	!	!	!LO:TX:a:t=1	!	!	!LO:TX:a:t=1	!	!	!LO:TX:a:t=6	!	!LO:TX:a:t=6	!	!LO:TX:a:t=7	!	!LO:TX:a:t=7	!
8F\L	3_ 1_	.	(8f\L	p	4f/	.	4a/	.	2.r	.	.	2.r	.	.	2.r	.	.	2.r	.	.	0.r	.	0.r	.	0.r	.	0.r	.
8En\	.	.	8en\	.	.	.	.	.	.	.	.	.	.	.	.	.	.	.	.	.	.	.	.	.	.	.	.	.
8E-X\J	.	.	8e-X\J	.	8f/	.	8a/	.	.	.	.	.	.	.	.	.	.	.	.	.	.	.	.	.	.	.	.	.
8D\L	6 _	.	8d\L	.	8f/L	.	8b-\L	.	.	.	.	.	.	.	.	.	.	.	.	.	.	.	.	.	.	.	.	.
!	!	!	!	!LO:DY:t=m fort	!	!	!	!	!	!	!	!	!	!	!	!	!	!	!	!	!	!	!	!	!	!	!	!
8C\	8 _	.	8c\	mf	8f/	.	8cc\	.	.	.	.	.	.	.	.	.	.	.	.	.	.	.	.	.	.	.	.	.
8BB-\J	3 x	.	8B-\J)	.	8f/J	.	8dd\J	.	.	.	.	.	.	.	.	.	.	.	.	.	.	.	.	.	.	.	.	.
=41	=41	=41	=41	=41	=41	=41	=41	=41	=41	=41	=41	=41	=41	=41	=41	=41	=41	=41	=41	=41	=41	=41	=41	=41	=41	=41	=41	=41
!	!	!	!	!	!	!LO:DY:rj:t=mfort	!	!LO:DY:rj:t=mz fort	!	!	!	!	!	!	!	!	!LO:DY:a:t=forto:color=red	!	!	!LO:DY:a:t=forte:color=red	!	!	!	!	!	!	!	!
8AA/L	3_ 6	.	16A/LL|	.	16f'/LL	mf	16cc'\LL	mf	4.A\	Chri-	.	4.A\	Chri-	.	4.f\	Chri-	f	4.cc\	Chri-	f	.	.	.	.	.	.	.	.
.	.	.	16A/JJ|	.	16f'/	.	16cc'\	.	.	.	.	.	.	.	.	.	.	.	.	.	.	.	.	.	.	.	.	.
!	!	!	!LO:LB:g=original	!	!	!	!	!	!	!	!	!	!	!	!	!	!	!	!	!	!	!	!	!	!	!	!	!
8AA/	.	.	16A/LL|	.	16f'/	.	16cc'\	.	.	.	.	.	.	.	.	.	.	.	.	.	.	.	.	.	.	.	.	.
.	.	.	16A/|	.	16f'/	.	16cc'\	.	.	.	.	.	.	.	.	.	.	.	.	.	.	.	.	.	.	.	.	.
8AA/J	.	.	16A/|	.	16f'/	.	16cc'\	.	.	.	.	.	.	.	.	.	.	.	.	.	.	.	.	.	.	.	.	.
.	.	.	16A/JJ|	.	16f'/JJ	.	16cc'\JJ	.	.	.	.	.	.	.	.	.	.	.	.	.	.	.	.	.	.	.	.	.
*tremolo	*	*	*	*	*tremolo	*	*tremolo	*	*	*	*	*	*	*	*	*	*	*	*	*	*	*	*	*	*	*	*	*
!	!	!	!	!	!	!	!LO:TX:a:t=......	!	!	!	!	!	!	!	!	!	!	!	!	!	!	!	!	!	!	!	!	!
8D\L	x #	.	16a\LL	.	16f#X'/LL	.	16cc'\LL	.	4.D\	-ste	.	4.A\	-ste	.	4.f#X\	-ste	.	4.cc\	-ste	.	.	.	.	.	.	.	.	.
.	.	.	16a\	.	16f#X'/	.	16cc'\	.	.	.	.	.	.	.	.	.	.	.	.	.	.	.	.	.	.	.	.	.
8D\	.	.	16a\	.	16f#X'/	.	16cc'\	.	.	.	.	.	.	.	.	.	.	.	.	.	.	.	.	.	.	.	.	.
.	.	.	16a\	.	16f#X'/	.	16cc'\	.	.	.	.	.	.	.	.	.	.	.	.	.	.	.	.	.	.	.	.	.
8D\J	.	.	16a\	.	16f#X'/	.	16cc'\	.	.	.	.	.	.	.	.	.	.	.	.	.	.	.	.	.	.	.	.	.
.	.	.	16a\JJ	.	16f#X'/JJ	.	16cc'\JJ	.	.	.	.	.	.	.	.	.	.	.	.	.	.	.	.	.	.	.	.	.
=42	=42	=42	=42	=42	=42	=42	=42	=42	=42	=42	=42	=42	=42	=42	=42	=42	=42	=42	=42	=42	=42	=42	=42	=42	=42	=42	=42	=42
*	*	*	*tremolo	*	*	*	*	*	*	*ij	*	*	*ij	*	*	*ij	*	*	*ij	*	*	*	*	*	*	*	*	*
8GG/L	3_ 5	.	16g\LL	.	16d/LL	.	16b-\LL	.	4.G\	Chri-	.	4.G/	Chri-	.	4.d\	Chri-	.	4.b-\	Chri-	.	.	.	.	.	.	.	.	.
.	.	.	16g\	.	16d/	.	16b-\	.	.	.	.	.	.	.	.	.	.	.	.	.	.	.	.	.	.	.	.	.
8GG/	.	.	16g\	.	16d/	.	16b-\	.	.	.	.	.	.	.	.	.	.	.	.	.	.	.	.	.	.	.	.	.
.	.	.	16g\	.	16d/	.	16b-\	.	.	.	.	.	.	.	.	.	.	.	.	.	.	.	.	.	.	.	.	.
8GG/J	.	.	16g\	.	16d/	.	16b-\	.	.	.	.	.	.	.	.	.	.	.	.	.	.	.	.	.	.	.	.	.
.	.	.	16g\JJ	.	16d/JJ	.	16b-\JJ	.	.	.	.	.	.	.	.	.	.	.	.	.	.	.	.	.	.	.	.	.
8C/L	x 3	.	16g\LL	.	16e-/LL	.	16b-\LL	.	4.C/	-ste	.	4.G/	-ste	.	4.en\	-ste	.	4.b-\	-ste	.	.	.	.	.	.	.	.	.
*	*	*	*	*	*	*	*	*	*	*Xij	*	*	*Xij	*	*	*Xij	*	*	*Xij	*	*	*	*	*	*	*	*	*
.	.	.	16g\	.	16e-/	.	16b-\	.	.	.	.	.	.	.	.	.	.	.	.	.	.	.	.	.	.	.	.	.
8C/	.	.	16g\	.	16e-/	.	16b-\	.	.	.	.	.	.	.	.	.	.	.	.	.	.	.	.	.	.	.	.	.
.	.	.	16g\	.	16e-/	.	16b-\	.	.	.	.	.	.	.	.	.	.	.	.	.	.	.	.	.	.	.	.	.
8C/J	.	.	16g\	.	16e-/	.	16b-\	.	.	.	.	.	.	.	.	.	.	.	.	.	.	.	.	.	.	.	.	.
.	.	.	16g\JJ	.	16e-/JJ	.	16b-\JJ	.	.	.	.	.	.	.	.	.	.	.	.	.	.	.	.	.	.	.	.	.
*Xtremolo	*	*	*Xtremolo	*	*Xtremolo	*	*Xtremolo	*	*	*	*	*	*	*	*	*	*	*	*	*	*	*	*	*	*	*	*	*
=43	=43	=43	=43	=43	=43	=43	=43	=43	=43	=43	=43	=43	=43	=43	=43	=43	=43	=43	=43	=43	=43	=43	=43	=43	=43	=43	=43	=43
!LO:TX:t=P:problem:mixed beam	!	!	!	!	!	!	!	!	!LO:TX:t=P:problem:mixed beam	!	!	!	!	!	!	!	!	!	!	!	!	!	!	!	!	!	!	!
8F\L	3	.	8f\L	.	16f/LL|	.	16a/LL|	.	8F\L	e-	.	8c\L	e-	.	8f\L	e-	.	(8a\L	e-	.	.	.	.	.	.	.	.	.
.	.	.	.	.	16f/|	.	16a/|	.	.	.	.	.	.	.	.	.	.	.	.	.	.	.	.	.	.	.	.	.
8BB-/	8	.	8B-\	.	16d/|	.	16b-/|	.	8BB-/	.	.	8B-\	.	.	8dd\	.	.	8b-\	.	.	.	.	.	.	.	.	.	.
.	.	.	.	.	16d/|	.	16b-/|	.	.	.	.	.	.	.	.	.	.	.	.	.	.	.	.	.	.	.	.	.
8D/J	6	.	8d\J	.	16B-/|	.	16g/|	.	8D/J	.	.	8d\J	.	.	8b-\J	.	.	8g\J)	.	.	.	.	.	.	.	.	.	.
.	.	.	.	.	16B-/JJ|	.	16g/JJ|	.	.	.	.	.	.	.	.	.	.	.	.	.	.	.	.	.	.	.	.	.
!LO:N:vis=4.	!	!	!LO:TX:t=P:problem:mixed beam	!	!	!	!	!	!	!	!	!	!	!	!	!	!	!	!	!	!	!	!	!	!	!	!	!
4C/	4	.	8c\L	.	16A/LL|	.	16f/LL|	.	4C/	-lei-	.	4c\	-lei-	.	8a\L	-lei-	.	8f/L	-lei-	.	.	.	.	.	.	.	.	.
.	.	.	.	.	16A/|	.	16f/|	.	.	.	.	.	.	.	.	.	.	.	.	.	.	.	.	.	.	.	.	.
.	.	.	8C/	.	16B-/|	.	16g/|	.	.	.	.	.	.	.	8b-\J	.	.	8g/J	.	.	.	.	.	.	.	.	.	.
.	.	.	.	.	16B-/|	.	16g/|	.	.	.	.	.	.	.	.	.	.	.	.	.	.	.	.	.	.	.	.	.
8CC/	n	.	8c\J	.	16G/|	.	16en/|	.	8C/	-son	.	8c\	-son	.	8g\	-son	.	8en/	-son	.	.	.	.	.	.	.	.	.
!	!	!LO:DY:t=piano	!	!	!	!	!	!	!	!	!	!	!	!	!	!	!	!	!	!	!	!	!	!	!	!	!	!
.	.	p	.	.	16G/JJ|	.	16e/JJ|	.	.	.	.	.	.	.	.	.	.	.	.	.	.	.	.	.	.	.	.	.
!	!	!	!	!	!	!	!	!	!LO:LB:g=original	!	!	!	!	!	!LO:LB:g=original	!	!	!	!	!	!	!	!	!	!	!	!	!
=44	=44	=44	=44	=44	=44	=44	=44	=44	=44	=44	=44	=44	=44	=44	=44	=44	=44	=44	=44	=44	=44	=44	=44	=44	=44	=44	=44	=44
!	!	!	!	!LO:DY:t=pia	!	!LO:DY:t=pia	!	!LO:DY:t=pia	!	!	!	!	!	!	!	!	!LO:DY:a:t=pia:color=red	!	!	!LO:DY:a:t=piano:color=red	!	!	!	!	!	!	!	!
8FF/L	4	.	8F/L	p	16r	p	16r	p	16F\	Chri-	.	16c\	Chri-	.	16a\	Chri-	p	16cc\	Chri-	p	1.r	.	1.r	.	1.r	.	1.r	.
.	.	.	.	.	16a/	.	16cc\|	.	16r	.	.	16r	.	.	16r	.	.	16r	.	.	.	.	.	.	.	.	.	.
8GG/	3	.	8G/	.	16r	.	16r	.	16G\	.	.	16en\	.	.	16g\	.	.	16b-\	.	.	.	.	.	.	.	.	.	.
.	.	.	.	.	16g/|	.	16b-\|	.	16r	.	.	16r	.	.	16r	.	.	16r	.	.	.	.	.	.	.	.	.	.
!	!	!	!	!	!	!	!LO:LB:g=original	!	!	!	!	!	!	!	!	!	!	!	!	!	!	!	!	!	!	!	!	!
8AA/J	8	.	8A/J	.	16r	.	16r	.	16A\	-ste	.	16f\	-ste	.	16f\	-ste	.	16a\	-ste	.	.	.	.	.	.	.	.	.
.	.	.	.	.	16f/|	.	16a\|	.	16r	.	.	16r	.	.	16r	.	.	16r	.	.	.	.	.	.	.	.	.	.
.	.	.	.	.	.	.	.	.	.	.	.	.	.	.	.	.	.	16qqa/	.	.	.	.	.	.	.	.	.	.
!	!	!	!	!	!LO:LB:g=original	!	!	!	!	!	!	!LO:LB:g=original	!	!	!	!	!	!	!	!	!	!	!	!	!	!	!	!
8BB-/L	6	.	8B-\L	.	(16c/LL	.	(16a/LL	.	8B-\	e-	.	8B-\	e-	.	8dd\	e-	.	8g\	e-	.	.	.	.	.	.	.	.	.
.	.	.	.	.	16B-/)	.	16g/)	.	.	.	.	.	.	.	.	.	.	.	.	.	.	.	.	.	.	.	.	.
.	.	.	.	.	.	.	.	.	.	.	.	.	.	.	.	.	.	16qqg/	.	.	.	.	.	.	.	.	.	.
8C/	4	.	8c\	.	(16B-/	.	(16g/JJ	.	8c\	-lei-	.	8A\	-lei-	.	8cc\	-lei-	.	8f\	-lei-	.	.	.	.	.	.	.	.	.
.	.	.	.	.	16A/)	.	16f/LL)	.	.	.	.	.	.	.	.	.	.	.	.	.	.	.	.	.	.	.	.	.
.	.	.	.	.	.	.	.	.	.	.	.	.	.	.	.	.	.	16qqf/	.	.	.	.	.	.	.	.	.	.
8CC/J	n	.	8c\J	.	(16A/	.	(16f/	.	8C/	-son	.	8G\	-son	.	8cc\	-son	.	8en/	-son	.	.	.	.	.	.	.	.	.
.	.	.	.	.	16G/JJ)	.	16en/JJ)	.	.	.	.	.	.	.	.	.	.	.	.	.	.	.	.	.	.	.	.	.
=45	=45	=45	=45	=45	=45	=45	=45	=45	=45	=45	=45	=45	=45	=45	=45	=45	=45	=45	=45	=45	=45	=45	=45	=45	=45	=45	=45	=45
8FF/L	.	.	8F/L	<	16a\LL|	.	16cc\LL|	<	8F\L	X-	.	4c\	X-	.	8a\L	X-	.	8cc\L	X-	.	.	.	.	.	.	.	.	.
.	.	.	.	.	16a\|	<	16cc\|	.	.	.	.	.	.	.	.	.	.	.	.	.	.	.	.	.	.	.	.	.
8GG/	.	.	8G/	.	16b-\|	.	16een\|	.	8G\J	.	.	.	.	.	8b-\J	.	.	8een\J	.	.	.	.	.	.	.	.	.	.
.	.	.	.	.	16b-\|	[	16ee\|	.	.	.	.	.	.	.	.	.	.	.	.	.	.	.	.	.	.	.	.	.
8AA/J	.	.	8A/J	[	16cc\|	.	16ff\|	[	8A\	-te	.	8c\	-te	.	8cc\	-te	.	8ff\	-te	.	.	.	.	.	.	.	.	.
!	!	!	!	!	!	!LO:DY:t=fort	!	!	!	!	!	!	!	!	!	!	!	!	!	!	!	!	!	!	!	!	!	!
.	.	.	.	.	16cc\JJ|	f	16ff\JJ|	.	.	.	.	.	.	.	.	.	.	.	.	.	.	.	.	.	.	.	.	.
!	!	!LO:DY:t=fort.	!	!LO:DY:t=forto	!	!	!	!LO:DY:t=fort	!LO:TX:t=P:problem:mixed beam	!	!	!	!	!	!	!	!LO:DY:a:t=forto:color=red	!	!	!LO:DY:a:t=forte:color=red	!	!	!	!	!	!	!	!
8BB-/L	.	f	(8d\L	f	(32cc\LLL	.	(32ee\LLL	f	8B-\L|	e-	.	8d\	e-	.	(32cc\LLL	e-	f	(32ee\LLL	e-	f	.	.	.	.	.	.	.	.
.	.	.	.	.	32b-\	.	32dd\	.	.	.	.	.	.	.	32b-\	.	.	32dd\	.	.	.	.	.	.	.	.	.	.
.	.	.	.	.	32a\	.	32cc\	.	.	.	.	.	.	.	32a\	.	.	32cc\	.	.	.	.	.	.	.	.	.	.
.	.	.	.	.	32g\JJJ)	.	32b-\JJJ)	.	.	.	.	.	.	.	32g\JJJ)	.	.	32b-\JJJ)	.	.	.	.	.	.	.	.	.	.
8C/	4	.	8c\)	.	8f/L	.	8a/L	.	(8c\	-lei	.	4c\	-lei-	.	8f\L	-lei-	.	8a\L	-lei-	.	.	.	.	.	.	.	.	.
8CC/J	n	.	8c\J	.	8enJ 8B-/	.	8g/J	[[	8C/J)	.	.	.	.	.	8b-\J	.	.	8g\J	.	.	.	.	.	.	.	.	.	.
!	!	!	!	!	!	!	!	!	!	!	!	!	!	!	!	!	!	!LO:LB:g=original	!	!	!	!	!	!	!	!	!	!
=46	=46	=46	=46	=46	=46	=46	=46	=46	=46	=46	=46	=46	=46	=46	=46	=46	=46	=46	=46	=46	=46	=46	=46	=46	=46	=46	=46	=46
*	*	*	*	*	*	*	*^	*	*	*	*	*	*	*	*	*	*	*	*	*	*	*	*	*	*	*	*	*
!LO:TX:t=P:problem:mixed beam	!	!	!	!	!	!	!	!	!	!	!	!	!	!	!	!	!	!	!	!	!	!	!	!	!	!	!	!	!
8F\L	3_	.	4c\	.	(4B-/	.	(4g/	4.ryy	.	4.F\	-son	.	4c\	-son	.	(4b-\	-son	.	(4g\	-son	.	4r	.	4r	.	2.r	.	2.r	.
8C\	.	.	.	.	.	.	.	.	.	.	.	.	.	.	.	.	.	.	.	.	.	.	.	.	.	.	.	.	.
8FF/J	x	.	8c\	.	8A/)	.	8f/)	.	.	.	.	.	8r	.	.	8a\)	.	.	8f/)	.	.	8r	.	8r	.	.	.	.	.
*	*	*	*	*	*	*	*	*cue	*	*	*	*	*	*	*	*	*	*	*	*	*	*	*	*	*	*	*	*	*
!LO:LB:g=original	!	!	!LO:TX:b:i:t=dol&colon;	!	!	!	!LO:TX:a:t=Corno	!	!	!	!	!	!	!	!	!	!	!	!	!	!	!LO:TX:a:i:t=Solo	!	!LO:TX:b:i:t=Solo	!	!	!	!	!
4r	.	.	(8f'\L	.	8r	.	4rg	8f\L	.	4r	.	.	4r	.	.	4r	.	.	4r	.	.	8F'/L	.	8f'/L	.	.	.	.	.
.	.	.	8f'\	.	4r	.	.	8f\	.	.	.	.	.	.	.	.	.	.	.	.	.	8F'/	.	8f'/	.	.	.	.	.
8r	.	.	8f'\J)	.	.	.	8rg	8f\J	.	8r	.	.	8r	.	.	8r	.	.	8r	.	.	8F'/J	.	8f'/J	.	.	.	.	.
*	*	*	*	*	*	*	*	*Xcue	*	*	*	*	*	*	*	*	*	*	*	*	*	*	*	*	*	*	*	*	*
*	*	*	*	*	*	*	*v	*v	*	*	*	*	*	*	*	*	*	*	*	*	*	*	*	*	*	*	*	*	*
=47	=47	=47	=47	=47	=47	=47	=47	=47	=47	=47	=47	=47	=47	=47	=47	=47	=47	=47	=47	=47	=47	=47	=47	=47	=47	=47	=47	=47
!LO:TX:a:i:t=Fagotti	!	!	!	!	!LO:TX:a:i:t=dol&colon;	!	!	!LO:DY:rj:t=pia	!LO:TX:a:t=7	!	!	!LO:TX:a:t=2	!	!	!LO:TX:a:t=7	!	!	!LO:TX:a:t=7	!	!	!	!	!	!	!LO:TX:a:i:t=dolce	!	!	!
8FF/|	.	.	8f\	.	16r	.	16r	p	0.r	.	.	1.r	.	.	0.r	.	.	0.r	.	.	8F/	.	8f/	.	16r	.	16r	.
!	!	!	!	!	!	!	!	!	!	!	!	!	!	!	!	!	!	!	!	!	!	!	!	!	!	!	!LO:TX:a:i:t=dolce	!
.	.	.	.	.	16A/LL|	.	16c/LL|	.	.	.	.	.	.	.	.	.	.	.	.	.	.	.	.	.	16a\LL|	.	16cc\LL|	.
8r	.	.	8r	.	(16B-/	.	(16d/	.	.	.	.	.	.	.	.	.	.	.	.	.	8r	.	8r	.	(16b-\	.	(16dd\	.
.	.	.	.	.	16c/	.	16e-/	.	.	.	.	.	.	.	.	.	.	.	.	.	.	.	.	.	16cc\	.	16ee-\	.
8r	.	.	8r	.	16B-/	.	16d/	.	.	.	.	.	.	.	.	.	.	.	.	.	8r	.	8r	.	16b-\	.	16dd\	.
.	.	.	.	.	16A/JJ)	.	16c/JJ)	.	.	.	.	.	.	.	.	.	.	.	.	.	.	.	.	.	16a\JJ)	.	16cc\JJ)	.
8FF/|	.	.	8f\	.	16r	.	16r	.	.	.	.	.	.	.	.	.	.	.	.	.	8F/	.	8f/	.	16r	.	16r	.
.	.	.	.	.	16B-/LL|	.	16d/LL|	.	.	.	.	.	.	.	.	.	.	.	.	.	.	.	.	.	16b-\LL|	.	16dd\LL|	.
8r	.	.	8r	.	(16c/	.	(16e-/	.	.	.	.	.	.	.	.	.	.	.	.	.	8r	.	8r	.	(16cc\	.	(16ee-\	.
.	.	.	.	.	16d/	.	16f/	.	.	.	.	.	.	.	.	.	.	.	.	.	.	.	.	.	16dd\	.	16ff\	.
8r	.	.	8r	.	16c/	.	16e-/	.	.	.	.	.	.	.	.	.	.	.	.	.	8r	.	8r	.	16cc\	.	16ee-\	.
.	.	.	.	.	16B-/JJ)	.	16d/JJ)	.	.	.	.	.	.	.	.	.	.	.	.	.	.	.	.	.	16b-\JJ)	.	16dd\JJ)	.
!	!	!	!	!	!	!	!	!	!	!	!	!	!	!	!	!	!	!	!	!	!	!	!	!	!LO:LB:g=original	!	!	!
=48	=48	=48	=48	=48	=48	=48	=48	=48	=48	=48	=48	=48	=48	=48	=48	=48	=48	=48	=48	=48	=48	=48	=48	=48	=48	=48	=48	=48
8r	.	.	8r	.	8c/L	.	8e-/L	.	.	.	.	.	.	.	.	.	.	.	.	.	4f/	.	4cc\	.	8cc\L|	.	8ee-\L|	.
!LO:TX:t=P:problem:mixed beam	!	!	!	!	!	!	!	!	!	!	!	!	!	!	!	!	!	!	!	!	!	!	!	!	!	!	!	!
8FF/L|	.	.	8f\L|	.	(16c/L	.	(16e-/L	.	.	.	.	.	.	.	.	.	.	.	.	.	.	.	.	.	(16cc\L	.	(16ee-\L	.
.	.	.	.	.	16B-/J)	.	16d/J)	.	.	.	.	.	.	.	.	.	.	.	.	.	.	.	.	.	16b-\J)	.	16dd\J)	.
8F\J|	.	.	8f\J|	.	8c/J	.	8e-/J|	.	.	.	.	.	.	.	.	.	.	.	.	.	8f/	.	8cc\	.	8cc\J|	.	8ee-\J|	.
!	!	!	!LO:LB:g=original	!	!	!	!	!	!	!	!	!	!	!	!	!	!	!	!	!	!	!	!	!	!	!	!	!
8r	.	.	8r	.	8B-/L	.	8d/L|	.	.	.	.	.	.	.	.	.	.	.	.	.	4b-\	.	4dd\	.	8b-\L|	.	8dd\L|	.
!LO:TX:t=P:problem:mixed beam	!	!	!	!	!	!	!	!	!	!	!	!	!	!	!	!	!	!	!	!	!	!	!	!	!	!	!	!
8BB-/L|	.	.	8f\L|	.	(16B-/L	.	(16d/L	.	.	.	.	.	.	.	.	.	.	.	.	.	.	.	.	.	(16b-\L	.	(16dd\L	.
.	.	.	.	.	16A/J)	.	16c/J)	.	.	.	.	.	.	.	.	.	.	.	.	.	.	.	.	.	16a\J)	.	16cc\J)	.
8B-\J|	.	.	8f\J|	.	8B-/J	.	8d/J	.	.	.	.	.	.	.	.	.	.	.	.	.	8b-\	.	8dd\	.	8b-\J|	.	8dd\J	.
!	!	!	!	!	!	!	!	!	!	!	!	!	!	!	!	!	!	!	!	!	!	!	!	!	!	!	!LO:LB:g=original	!
=49	=49	=49	=49	=49	=49	=49	=49	=49	=49	=49	=49	=49	=49	=49	=49	=49	=49	=49	=49	=49	=49	=49	=49	=49	=49	=49	=49	=49
!	!	!	!	!	!	!	!	!LO:DY:rj:t=fort	!	!	!	!	!	!	!	!	!	!	!	!	!	!	!	!	!	!	!	!
8F/L|	.	.	8f\L	.	4A/	.	8c/L	f	.	.	.	4r	.	.	.	.	.	.	.	.	8f/L	.	8cc\L	.	4a\	.	8cc\L	.
8C/|	.	.	8c\	.	.	.	8f'/	.	.	.	.	.	.	.	.	.	.	.	.	.	8f/	.	8cc\	.	.	.	8ff\	.
8AA/J|	.	.	8A\J	.	8A/	.	8f'/J	.	.	.	.	8r	.	.	.	.	.	.	.	.	8f/J	.	8cc\J	.	8a\	.	8ff\J	.
!	!	!	!	!	!	!	!LO:LB:g=original	!	!	!	!	!LO:TX:a:i:t=Solo	!	!	!	!	!	!	!	!	!	!	!	!	!	!	!	!
4FF/|	.	.	4F/	.	8A/	.	8f/	.	.	.	.	4r	.	.	.	.	.	.	.	.	4f/	.	4cc\	.	4a\	.	4ff\	.
!	!	!	!	!	!	!LO:DY:t=pia	!	!	!	!	!	!	!	!	!	!	!	!	!	!	!	!	!	!	!	!	!	!
.	.	.	.	.	8r	p	8r	.	.	.	.	.	.	.	.	.	.	.	.	.	.	.	.	.	.	.	.	.
!LO:TX:b:i:t=Con Org&colon; Solo	!	!	!	!	!	!	!	!LO:DY:t=pia	!	!	!	!	!	!	!	!	!	!	!	!	!	!	!	!	!	!	!	!
8r	.	.	8r	.	8d/	.	8f/	p	.	.	.	(8F/	Ky-	.	.	.	.	.	.	.	8r	.	8r	.	8r	.	8r	.
!	!	!	!	!	!LO:LB:g=original	!	!	!	!	!	!	!	!	!	!	!	!	!	!	!	!	!	!	!	!	!	!	!
=50	=50	=50	=50	=50	=50	=50	=50	=50	=50	=50	=50	=50	=50	=50	=50	=50	=50	=50	=50	=50	=50	=50	=50	=50	=50	=50	=50	=50
!	!	!	!	!	!	!	!LO:TX:b:t=vox	!	!	!	!	!	!	!	!	!	!	!	!	!	!	!	!	!	!	!	!	!
!	!	!	!	!LO:DY:t=pia&colon;	!	!	!LO:TX:t=P:problem:mixed beam	!	!	!	!	!LO:TX:t=P:problem:mixed beam	!	!	!	!	!	!	!	!	!LO:TX:a:t=4	!	!LO:TX:a:t=4	!	!LO:TX:a:t=4	!	!LO:TX:a:t=3	!
4BB-/	5_ 3_	.	4B-/	p	8d/L|	.	(8f/L	.	.	.	.	8F/L	.	.	.	.	.	.	.	.	0.r	.	0.r	.	0.r	.	1.r	.
.	.	.	.	.	(8f/	.	8dd\)	.	.	.	.	8d\J)	.	.	.	.	.	.	.	.	.	.	.	.	.	.	.	.
8r	.	.	8r	.	8e-/J)	.	8cc\J|	.	.	.	.	8c\	-ri-	.	.	.	.	.	.	.	.	.	.	.	.	.	.	.
4B-\	.	.	4b-\	.	(8d/L	.	(8b-\L	.	.	.	.	8B-\L	-e	.	.	.	.	.	.	.	.	.	.	.	.	.	.	.
.	.	.	.	.	8c/	.	8a\)	.	.	.	.	8A\J	.	.	.	.	.	.	.	.	.	.	.	.	.	.	.	.
8r	.	.	8r	.	8d/J)	.	8b-\J|	.	.	.	.	8B-\	e-	.	.	.	.	.	.	.	.	.	.	.	.	.	.	.
=51	=51	=51	=51	=51	=51	=51	=51	=51	=51	=51	=51	=51	=51	=51	=51	=51	=51	=51	=51	=51	=51	=51	=51	=51	=51	=51	=51	=51
8e-\L	4_ 2_	.	4B-/	.	(8f/L	.	(8a-X/L	.	1.r	.	.	(8A-X\	-lei-	.	1.r	.	.	1.r	.	.	.	.	.	.	.	.	.	.
8B-\	.	.	.	.	8e-/)	.	8g/)	.	.	.	.	4G\)	.	.	.	.	.	.	.	.	.	.	.	.	.	.	.	.
8G\J	6_ 4_	.	8B-/	.	8e-/J|	.	8g/J|	.	.	.	.	.	.	.	.	.	.	.	.	.	.	.	.	.	.	.	.	.
4E-\	.	.	4B-/	.	8e-/	.	8g/	.	.	.	.	8G/	-son	.	.	.	.	.	.	.	.	.	.	.	.	.	.	.
.	X X	.	.	.	8r	.	8r	.	.	.	.	8r	.	.	.	.	.	.	.	.	.	.	.	.	.	.	.	.
8r	.	.	8r	.	8e-/	.	8g/	.	.	.	.	(8G/	Ky-	.	.	.	.	.	.	.	.	.	.	.	.	.	.	.
=52	=52	=52	=52	=52	=52	=52	=52	=52	=52	=52	=52	=52	=52	=52	=52	=52	=52	=52	=52	=52	=52	=52	=52	=52	=52	=52	=52	=52
!	!	!	!	!	!LO:TX:t=P:problem:mixed beam	!	!LO:TX:t=P:problem:mixed beam	!	!	!	!	!LO:TX:t=P:problem:mixed beam	!	!	!	!	!	!	!	!	!	!	!	!	!	!	!	!
4E-\	3	.	4B-/	.	(8e-/L	.	(8g/L	.	.	.	.	8G/L	.	.	.	.	.	.	.	.	.	.	.	.	.	.	2.r	.
.	.	.	.	.	8cc\	.	8ee-\)	.	.	.	.	8e-\J)	.	.	.	.	.	.	.	.	.	.	.	.	.	.	.	.
8r	.	.	8r	.	8b-\J)	.	8dd\J|	.	.	.	.	8d\	-ri-	.	.	.	.	.	.	.	.	.	.	.	.	.	.	.
4F\	n	.	4f\	.	(8a/L	.	(8cc\L	.	.	.	.	(8c\L	-e	.	.	.	.	.	.	.	.	.	.	.	.	.	.	.
.	.	.	.	.	8g#X/	.	8bn\)	.	.	.	.	8Bn\J)	.	.	.	.	.	.	.	.	.	.	.	.	.	.	.	.
8r	.	.	8r	.	8a/J)	.	8cc\J|	.	.	.	.	8c\	e-	.	.	.	.	.	.	.	.	.	.	.	.	.	.	.
=53	=53	=53	=53	=53	=53	=53	=53	=53	=53	=53	=53	=53	=53	=53	=53	=53	=53	=53	=53	=53	=53	=53	=53	=53	=53	=53	=53	=53
8B-\L	#2	.	4.f\	.	(<4.a/	.	(4.cc#X\	.	2.r	.	.	4.c#X\	-lei-	.	2.r	.	.	2.r	.	.	.	.	.	.	.	.	4r	.
8F\	.	.	.	.	.	.	.	.	.	.	.	.	.	.	.	.	.	.	.	.	.	.	.	.	.	.	.	.
8D\J	.	.	.	.	.	.	.	.	.	.	.	.	.	.	.	.	.	.	.	.	.	.	.	.	.	.	8r	.
!	!	!	!	!	!	!	!	!	!	!	!	!LO:LB:g=original	!	!	!	!	!	!	!	!	!	!	!	!	!	!	!	!
4BB-/	3	.	8f\	.	8b-\)|	.	8dd\)|	.	.	.	.	8d\	-son	.	.	.	.	.	.	.	.	.	.	.	.	.	4r	.
!	!	!	!	!	!	!	!	!	!	!	!	!	!	!	!	!	!	!	!	!	!	!	!	!	!	!	!	!LO:DY:t=fort
.	.	.	8r	.	8r	.	8r	.	.	.	.	8r	.	.	.	.	.	.	.	.	.	.	.	.	.	.	.	f
!	!	!	!	!	!	!LO:DY:t=fort	!	!LO:DY:t=forto	!	!	!	!	!	!	!	!	!	!	!	!	!	!	!	!	!	!	!	!
8r	.	.	8r	.	8r	f	8b-\	f	.	.	.	8r	.	.	.	.	.	.	.	.	.	.	.	.	.	.	8b-\	.
=54	=54	=54	=54	=54	=54	=54	=54	=54	=54	=54	=54	=54	=54	=54	=54	=54	=54	=54	=54	=54	=54	=54	=54	=54	=54	=54	=54	=54
!LO:TX:t=P:problem:mixed beam	!	!	!	!	!	!	!	!	!	!	!	!	!	!	!	!	!	!	!	!	!	!	!	!	!	!	!	!
!LO:TX:b:i:t=Tutti	!	!	!	!LO:DY:t=fort	!	!	!	!	!	!	!	!LO:TX:a:i:t=Tut&colon;	!	!LO:DY:a	!	!	!LO:DY:a:rj:t=fort:color=red	!	!	!LO:DY:b:t=forte:color=red	!	!LO:DY:t=fort	!	!LO:DY:rj:t=forte	!	!LO:DY:t=fort	!	!
8E-\L	3_	.	8b-\L	f	8ee-\L|	.	8gg\L|	.	8E-\L	Ky-	.	4e-\	Ky-	???	4b-\	Ky-	f	4gg\	Ky-	f	8b-\L	f	8b-\L	f	8ee-\L	f	8gg\L	.
8GG/	.	.	8b-\	.	8ee-\|	.	8gg\|	.	8G\J	.	.	.	.	.	.	.	.	.	.	.	8b-\	.	8b-\	.	8ee-\	.	8gg\	.
8BB-/J	x	.	8b-\J	.	8ee-\J|	.	8gg\J|	.	8B-\	-ri-	.	8e-\	-ri-	.	8b-\	-ri-	.	8gg\	-ri-	.	8b-\J	.	8b-\J	.	8ee-\J	.	8gg\J	.
!	!	!	!	!	!LO:TX:t=P:problem:mixed beam	!	!LO:TX:t=P:problem:mixed beam	!	!	!	!	!	!	!	!	!	!	!	!	!	!	!	!	!	!	!	!	!
4E-\	.	.	4b-\	.	8ee-\L|>	.	16gg\LL|	.	4e-\	-e	.	4e-\	-e	.	4b-\	-e	.	4gg\	-e	.	4b-\	.	4b-\	.	4ee-\	.	4gg\	.
.	.	.	.	.	.	.	16e-/|	.	.	.	.	.	.	.	.	.	.	.	.	.	.	.	.	.	.	.	.	.
.	.	.	.	.	16e-/L|	.	16g/|	.	.	.	.	.	.	.	.	.	.	.	.	.	.	.	.	.	.	.	.	.
.	.	.	.	.	16g/|	.	16b-/|	.	.	.	.	.	.	.	.	.	.	.	.	.	.	.	.	.	.	.	.	.
8r	.	.	8r	.	16b-/|	.	16ee-/|	.	8r	.	.	8r	.	.	8r	.	.	8r	.	.	8r	.	8r	.	8r	.	8r	.
.	.	.	.	.	16ee-/JJ|	.	16gg/JJ|	.	.	.	.	.	.	.	.	.	.	.	.	.	.	.	.	.	.	.	.	.
=55	=55	=55	=55	=55	=55	=55	=55	=55	=55	=55	=55	=55	=55	=55	=55	=55	=55	=55	=55	=55	=55	=55	=55	=55	=55	=55	=55	=55
8BB-/L	3_	.	8b-\L	.	8dd\L|	.	8ff\L|	.	8BB-/L	Ky-	.	4d\	Ky-	.	4b-\	Ky-	.	4ff\	Ky-	.	8B-/L|	.	4b-\	.	8dd\L	.	8ff\L	.
8D/	.	.	8b-\	.	8dd\|	.	8ff\|	.	8D/J	.	.	.	.	.	.	.	.	.	.	.	8d/|	.	.	.	8dd\	.	8ff\	.
8F/J	x	.	8b-\J	.	8dd\J|	.	8ff\J|	.	8F\	-ri-	.	8d\	-ri-	.	8b-\	-ri-	.	8ff\	-ri-	.	8f/J|	.	8b-\	.	8dd\J	.	8ff\J	.
!	!	!	!	!	!	!	!LO:TX:t=P:problem:mixed beam	!	!	!	!	!	!	!	!	!	!	!	!	!	!	!	!	!	!	!	!	!
!	!	!	!	!	!LO:TX:t=P:problem:mixed beam	!	!	!	!	!	!	!	!	!	!	!	!	!	!	!	!	!	!	!	!	!	!	!
4B-\	.	.	4b-\	.	8dd\L	.	16ff\LL|	.	4B-\	-e	.	4d\	-e	.	4b-\	-e	.	4ff\	-e	.	4b-\	.	4b-\	.	4dd\	.	4ff\	.
.	.	.	.	.	.	.	16B-/|	.	.	.	.	.	.	.	.	.	.	.	.	.	.	.	.	.	.	.	.	.
.	.	.	.	.	16B-/L|	.	16d/|	.	.	.	.	.	.	.	.	.	.	.	.	.	.	.	.	.	.	.	.	.
.	.	.	.	.	16d/|	.	16f/|	.	.	.	.	.	.	.	.	.	.	.	.	.	.	.	.	.	.	.	.	.
8r	.	.	8r	.	16f/|	.	16b-/|	.	8r	.	.	8r	.	.	8r	.	.	8r	.	.	8r	.	8r	.	8r	.	8r	.
.	.	.	.	.	16b-/JJ|	.	16dd/JJ|	.	.	.	.	.	.	.	.	.	.	.	.	.	.	.	.	.	.	.	.	.
!LO:LB:g=original	!	!	!	!	!	!	!	!	!	!	!	!	!	!	!LO:LB:g=original	!	!	!	!	!	!	!	!LO:LB:g=original	!	!	!	!	!
=56	=56	=56	=56	=56	=56	=56	=56	=56	=56	=56	=56	=56	=56	=56	=56	=56	=56	=56	=56	=56	=56	=56	=56	=56	=56	=56	=56	=56
.	.	.	.	.	.	.	.	.	.	.	.	.	.	.	.	.	.	16qqff/	.	.	.	.	.	.	.	.	.	.
4AA/	5 3	.	4A/	.	(16cc\LL	.	(16ff\LL	.	4A\	Ky-	.	4c\	Ky-	.	4f\	Ky-	.	4ee-\	Ky-	.	4f/	.	4cc\	.	4cc\	.	(16ff\LL	.
.	.	.	.	.	16f\)	.	16ee-\JJ)	.	.	.	.	.	.	.	.	.	.	.	.	.	.	.	.	.	.	.	16ee-\)	.
!	!	!	!	!	!	!	!LO:LB:g=original	!	!	!	!	!	!	!	!	!	!	!	!	!	!	!	!	!	!	!	!	!
.	.	.	.	.	(16cc\	.	16ee-'\LL	.	.	.	.	.	.	.	.	.	.	.	.	.	.	.	.	.	.	.	16ee-'\	.
.	.	.	.	.	16f\)	.	16ee-'\	.	.	.	.	.	.	.	.	.	.	.	.	.	.	.	.	.	.	.	16ee-'\	.
8AA/	.	.	8A/	.	(16cc\	.	16ee-'\	.	8AA/	-ri-	.	8c\	-ri-	.	8f\	-ri-	.	8ee-\	-ri-	.	8f/	.	8cc\	.	8cc\	.	16ee-'\	.
.	.	.	.	.	16f\JJ)	.	16ee-'\JJ	.	.	.	.	.	.	.	.	.	.	.	.	.	.	.	.	.	.	.	16ee-'\JJ	.
.	.	.	.	.	.	.	.	.	.	.	.	.	.	.	.	.	.	16qqee-/	.	.	.	.	.	.	.	.	.	.
!	!	!	!	!	!	!	!	!	!	!	!	!LO:TX:t=P:problem:mixed beam	!	!	!	!	!	!	!	!	!	!	!	!	!	!	!	!
8BB-/L	3	.	8B-/L	.	(16b-/LL	.	(16ee-\LL	.	8BB-/L	-e	.	8B-\L	-e	.	4f\	-e	.	8dd\L	-e	.	8d/L	.	8b-\L	.	8b-/L	.	(16ee-\LL	.
.	.	.	.	.	16f/)	.	16dd\)	.	.	.	.	.	.	.	.	.	.	.	.	.	.	.	.	.	.	.	16dd\)	.
8C/	.	.	8c/	.	(16e-/	.	(16dd\	.	8C/J	.	.	8E-/J	.	.	.	.	.	8cc\J	.	.	8f/	.	8cc\	.	8e-/	.	(16dd\	.
.	.	.	.	.	16f/)	.	16cc\)	.	.	.	.	.	.	.	.	.	.	.	.	.	.	.	.	.	.	.	16cc\)	.
8D/J	.	.	8d/J	.	(16d/	.	(16cc\	.	8D\	e-	.	8D/	e-	.	8f\	e-	.	8b-\	e-	.	8b-/J	.	8dd\J	.	8d/J	.	(16cc\	.
.	.	.	.	.	16f/JJ)	.	16b-\JJ)	.	.	.	.	.	.	.	.	.	.	.	.	.	.	.	.	.	.	.	16b-\JJ)	.
!	!	!	!	!	!LO:LB:g=original	!	!	!	!LO:LB:g=original	!	!	!	!	!	!	!	!	!	!	!	!	!	!	!	!	!	!	!
=57	=57	=57	=57	=57	=57	=57	=57	=57	=57	=57	=57	=57	=57	=57	=57	=57	=57	=57	=57	=57	=57	=57	=57	=57	=57	=57	=57	=57
.	.	.	.	.	.	.	.	.	.	.	.	.	.	.	.	.	.	16qqb-/	.	.	.	.	.	.	.	.	.	.
4E-\	4 2	.	4e-\	.	(16c/LL	.	(16b-/LL	.	4E-\	-le-	.	(4.C/	-lei-	.	(4.f\	-lei-	.	(4.a\	-lei-	.	4f/	.	4cc\	.	4c/	.	(16b-\LL	.
.	.	.	.	.	16f/)	.	16a/)	.	.	.	.	.	.	.	.	.	.	.	.	.	.	.	.	.	.	.	16a\)	.
.	.	.	.	.	(16c/	.	16a'/	.	.	.	.	.	.	.	.	.	.	.	.	.	.	.	.	.	.	.	16a'\	.
.	.	.	.	.	16f/)	.	16a'/	.	.	.	.	.	.	.	.	.	.	.	.	.	.	.	.	.	.	.	16a'\	.
8E-\	.	.	8e-\	.	(16c/	.	16a'/	.	8E-\	-i-	.	.	.	.	.	.	.	.	.	.	8f/	.	8cc\	.	8c/	.	16a'\	.
.	.	.	.	.	16f/JJ)	.	16a'/JJ	.	.	.	.	.	.	.	.	.	.	.	.	.	.	.	.	.	.	.	16a'\JJ	.
!	!	!	!LO:LB:g=original	!	!	!	!	!	!	!	!	!LO:TX:t=P:problem:mixed beam	!	!	!	!	!	!	!	!	!	!	!	!	!	!	!	!
8D/L	3	.	8d\L	.	(16d/LL	.	(16a\LL	.	8D\L	.	.	8D/L	.	.	4f\)	.	.	8b-\L	.	.	8b-\L	.	8dd\L	.	(16d/LL	.	(16a\LL	.
.	.	.	.	.	16f/)	.	16b-\)	.	.	.	.	.	.	.	.	.	.	.	.	.	.	.	.	.	16f/)	.	16b-\)	.
8C/	.	.	8c\	.	(16a/	.	(16b-\	.	8C\J	.	.	8A\J)	.	.	.	.	.	8cc\J)	.	.	8f\	.	8cc\	.	(16a/	.	(16b-\	.
.	.	.	.	.	16f/)	.	16cc\)	.	.	.	.	.	.	.	.	.	.	.	.	.	.	.	.	.	16f/)	.	16cc\)	.
8BB-/J	.	.	8B-\J	.	(16b-/	.	(16cc\	.	8BB-/	-son	.	8B-\	-son	.	8f\	-son	.	8dd\	-son	.	8d\J	.	8b-\J	.	(16b-/	.	(16cc\	.
.	.	.	.	.	16f/JJ)	.	16dd\JJ)	.	.	.	.	.	.	.	.	.	.	.	.	.	.	.	.	.	16f/JJ)	.	16dd\JJ)	.
!	!	!	!	!	!	!	!	!	!	!	!	!	!	!	!	!	!	!	!	!	!	!	!	!	!	!	!LO:LB:g=original	!
=58	=58	=58	=58	=58	=58	=58	=58	=58	=58	=58	=58	=58	=58	=58	=58	=58	=58	=58	=58	=58	=58	=58	=58	=58	=58	=58	=58	=58
.	.	.	.	.	.	.	.	.	.	.	.	.	.	.	.	.	.	16qqff/	.	.	.	.	.	.	.	.	.	.
!	!	!LO:DY:t=pia	!	!LO:DY:t=pia	!	!LO:DY:rj:t=pia	!	!LO:DY:t=pia	!	!	!LO:DY:a:t=pia	!	!	!LO:DY:a:t=p&colon;	!	!	!	!	!	!LO:DY:b:t=piano:color=red	!	!LO:DY:t=pia	!	!LO:DY:t=pia	!	!LO:DY:t=pia	!	!LO:DY:t=pia
4AA/	5 3	p	4A/	p	(16cc/LL	p	(16ff\LL	p	4AA/	Ky-	p	4c\	Ky-	p	4f\	Ky-	.	4ee-\	Ky-	p	4f/	p	4cc\	p	4cc\	p	(16ff\LL	p
.	.	.	.	.	16f/)	.	16ee-\)	.	.	.	.	.	.	.	.	.	.	.	.	.	.	.	.	.	.	.	16ee-\)	.
.	.	.	.	.	(16cc/	.	16ee-'\	.	.	.	.	.	.	.	.	.	.	.	.	.	.	.	.	.	.	.	16ee-'\	.
.	.	.	.	.	16f/)	.	16ee-'\	.	.	.	.	.	.	.	.	.	.	.	.	.	.	.	.	.	.	.	16ee-'\	.
8AA/	.	.	8A/	.	(16cc/	.	16ee-'\	.	8AA/	-ri-	.	8c\	-ri-	.	8f\	-ri-	.	8ee-\	-ri-	.	8f/	.	8cc\	.	8cc\	.	16ee-'\	.
.	.	.	.	.	16f/JJ)	.	16ee-'\JJ	.	.	.	.	.	.	.	.	.	.	.	.	.	.	.	.	.	.	.	16ee-'\JJ	.
!	!	!	!	!	!	!	!	!	!	!	!	!LO:TX:t=P:problem:mixed beam	!	!	!	!	!	!	!	!	!	!	!	!	!LO:TX:t=P:problem:mixed beam	!	!	!
8BB-/L	3	.	8B-\L	.	(16b-/LL	.	(16ee-\LL	.	8BB-/L	-e	.	8B-\L	-e	.	4f\	-e	.	8dd\L	-e	.	8d/L	.	8b-\L	.	8b-\L	.	(16ee-\LL	.
.	.	.	.	.	16f/)	.	16dd\)	.	.	.	.	.	.	.	.	.	.	.	.	.	.	.	.	.	.	.	16dd\)	.
8C/	.	.	8c\	.	(16e-/	.	(16dd\	.	8C/J	.	.	8E-/J	.	.	.	.	.	8cc\J	.	.	8f/	.	8cc\	.	8e-/	.	(16dd\	.
.	.	.	.	.	16f/)	.	16cc\)	.	.	.	.	.	.	.	.	.	.	.	.	.	.	.	.	.	.	.	16cc\)	.
8D/J	.	.	8d\J	.	(16d/	.	(16cc\	.	8D\	e-	.	8D/	e-	.	8f\	e-	.	8b-\	e-	.	8b-/J	.	8dd\J	.	8d/J	.	(16cc\	.
.	.	.	.	.	16f/JJ)	.	16b-\JJ)	.	.	.	.	.	.	.	.	.	.	.	.	.	.	.	.	.	.	.	16b-\JJ)	.
!	!	!	!	!	!	!	!	!	!	!	!	!	!	!	!	!	!	!	!	!	!	!	!	!	!LO:LB:g=original	!	!	!
=59	=59	=59	=59	=59	=59	=59	=59	=59	=59	=59	=59	=59	=59	=59	=59	=59	=59	=59	=59	=59	=59	=59	=59	=59	=59	=59	=59	=59
4E-\	4 2	.	4e-\	.	(16c/LL	.	(16b-/LL	.	4E-\	-lei-	.	4C/	-lei-	.	4f\	-lei-	.	4a\	-lei-	.	4f/	.	4cc\	.	4c/	.	(16b-\LL	.
.	.	.	.	.	16f/)	.	16a/)	.	.	.	.	.	.	.	.	.	.	.	.	.	.	.	.	.	.	.	16a\)	.
.	.	.	.	.	(16c/	.	16a'/	.	.	.	.	.	.	.	.	.	.	.	.	.	.	.	.	.	.	.	16a'\	.
.	.	.	.	.	16f/)	.	16a'/	.	.	.	.	.	.	.	.	.	.	.	.	.	.	.	.	.	.	.	16a'\	.
8E-\	.	.	8e-\	.	(16c/	.	16a'/	.	8E-\	-son	.	8C/	-son	.	8f\	-son	.	8a\	-son	.	8f/	.	8cc\	.	8c/	.	16a'\	.
.	.	.	.	.	16f/JJ)	.	16a'/JJ	.	.	.	.	.	.	.	.	.	.	.	.	.	.	.	.	.	.	.	16a'\JJ	.
!	!	!	!	!	!	!	!	!	!	!	!	!LO:TX:t=P:problem:mixed beam	!	!	!	!	!	!LO:LB:g=original	!	!	!	!	!	!	!LO:TX:t=P:problem:mixed beam	!	!	!
8D/L	3	.	8d\L	.	(16d/LL	.	(16a\LL	.	8D\L	Ky-	.	8D/L	Ky-	.	4f\	Ky-	.	8b-\L	Ky-	.	8b-\L	.	8dd\L	.	8d/L	.	(16a\LL	.
.	.	.	.	.	16f/)	.	16b-\)	.	.	.	.	.	.	.	.	.	.	.	.	.	.	.	.	.	.	.	16b-\)	.
8C/	.	.	8c\	.	(16a/	.	(16b-\	.	8C\J	.	.	8A\J	.	.	.	.	.	8cc\J	.	.	8f\	.	8cc\	.	8a\	.	(16b-\	.
.	.	.	.	.	16f/)	.	16cc\)	.	.	.	.	.	.	.	.	.	.	.	.	.	.	.	.	.	.	.	16cc\)	.
8BB-/J	.	.	8B-\J	.	(16b-/	.	(16cc\	.	8BB-/	-ri-	.	8B-\	-ri-	.	8f\	-ri-	.	8dd\	-ri-	.	8d\J	.	8b-\J	.	8b-\J	.	(16cc\	.
.	.	.	.	.	16f/JJ)	.	16dd\JJ)	.	.	.	.	.	.	.	.	.	.	.	.	.	.	.	.	.	.	.	16dd\JJ)	.
=60	=60	=60	=60	=60	=60	=60	=60	=60	=60	=60	=60	=60	=60	=60	=60	=60	=60	=60	=60	=60	=60	=60	=60	=60	=60	=60	=60	=60
!	!	!LO:DY:t=forto	!	!	!	!LO:DY:rj:t=fort	!	!LO:DY:t=forto	!	!	!	!	!	!	!	!	!	!	!	!	!	!	!	!	!	!LO:DY:t=fort	!	!LO:DY:t=fort
4AA/	5 3	f	4A/	.	16cc\LL	f	(16ff\LL	f	4A\	-e	.	4c\	-e	.	4f\	-e	.	4ee-\	-e	.	4f/	.	4cc\	.	4cc\	f	(16ff\LL	f
.	.	.	.	.	16f\	.	16ee-\)	.	.	.	.	.	.	.	.	.	.	.	.	.	.	.	.	.	.	.	16ee-\)	.
.	.	.	.	.	16cc\	.	16ee-'\	.	.	.	.	.	.	.	.	.	.	.	.	.	.	.	.	.	.	.	16ee-'\	.
.	.	.	.	.	16f\JJ	.	16ee-'\JJ	.	.	.	.	.	.	.	.	.	.	.	.	.	.	.	.	.	.	.	16ee-'\JJ	.
!	!	!	!	!LO:DY:t=fort	!	!	!	!	!	!	!	!	!	!	!	!	!	!	!	!	!	!	!	!LO:DY:t=fort	!	!	!	!
8BB-/	3	.	8f\	f	(16cc\LL	.	(16ee-\LL	.	8B-\	e-	.	16c\LL	e-	.	8f\	e-	.	16ee-\LL	e-	.	8b-\	.	8dd\	f	(16cc\LL	.	(16ee-\LL	.
.	.	.	.	.	16b-\JJ)	.	16dd\JJ)	.	.	.	.	16B-\JJ	.	.	.	.	.	16dd\JJ	.	.	.	.	.	.	16b-\JJ)	.	16dd\JJ)	.
!LO:TX:t=P:problem:mixed beam	!	!	!	!	!	!	!	!	!	!	!	!LO:LB:g=original	!	!	!	!	!	!	!	!LO:DY:a:t=forte:color=red	!	!	!	!	!	!	!	!
8E-\L	6	.	8g\L	.	(16f/LL	.	(16dd\LL	.	8E-\	-le-	.	(16f\LL	-lei-	.	(8g\	-lei-	.	(16dd\LL	-lei-	f	8r	.	8r	.	16f/LL	.	(16dd\LL	.
!	!	!	!	!	!	!	!	!	!	!	!	!	!	!	!	!	!	!	!	!	!	!LO:DY:t=fort	!	!	!	!	!	!
.	.	.	.	.	16e-/J)	.	16cc\J)	.	.	.	.	16e-\J)	.	.	.	.	.	16cc\J)	.	.	.	f	.	.	16e-/J	.	16cc\J)	.
8F\	4	.	8f\	.	8d/	.	8b-\	.	4F\	-i-	.	8d\	.	.	4f\)	.	.	8b-\	.	.	8b-\L	.	8dd\L	.	8d/	.	8b-\	.
8FF/J	3	.	8f\J	.	8c/J	.	8a\J	.	.	.	.	8c\J	.	.	.	.	.	8a\J	.	.	8f\J	.	8cc\J	.	8c/J	.	8a\J	.
!	!	!	!	!	!	!	!LO:LB:g=original	!	!	!	!	!	!	!	!	!	!	!	!	!	!	!	!	!	!	!	!	!
=61	=61	=61	=61	=61	=61	=61	=61	=61	=61	=61	=61	=61	=61	=61	=61	=61	=61	=61	=61	=61	=61	=61	=61	=61	=61	=61	=61	=61
*^	*	*	*	*	*	*	*	*	*	*	*	*	*	*	*	*	*	*	*	*	*	*	*	*	*	*	*	*
!LO:TX:t=P:problem:mixed beam	!	!	!	!	!	!	!	!	!	!	!	!	!	!	!	!	!	!	!	!	!	!	!	!	!	!	!	!	!
8BB-/L	2.BB-\	.	.	4f\	.	8d/	.	8b-\	.	4BB-/	-son	.	4d\	-son	.	4f\	-son	.	4b-\	-son	.	8B-/L	.	8b-\L	.	4d/	.	8b-\	.
8B-\|	.	.	.	.	.	(16d/LL	.	8r	.	.	.	.	.	.	.	.	.	.	.	.	.	8B-/	.	8b-\	.	.	.	8r	.
.	.	.	.	.	.	16f/)	.	.	.	.	.	.	.	.	.	.	.	.	.	.	.	.	.	.	.	.	.	.	.
8B-\J|	.	.	.	8r	.	(16d/	.	8bb-'\	.	8r	.	.	8r	.	.	8r	.	.	8r	.	.	8B-/J	.	8b-\J	.	8r	.	8bb-\	.
.	.	.	.	.	.	16f/JJ)	.	.	.	.	.	.	.	.	.	.	.	.	.	.	.	.	.	.	.	.	.	.	.
8B-\L	.	4 2 7 5	.	8c\L	.	(16e-/LL	.	8ccc'\L	.	4A\	Ky-	.	4c\	Ky-	.	4f\	Ky-	.	4ee-\	Ky-	.	[>4.B-/	.	4.b-\	.	4.a\	.	8ccc\L	.
.	.	.	.	.	.	16f/)	.	.	.	.	.	.	.	.	.	.	.	.	.	.	.	.	.	.	.	.	.	.	.
8B-\	.	.	.	8c\	.	(16e-/	.	(16aa\L	.	.	.	.	.	.	.	.	.	.	.	.	.	.	.	.	.	.	.	(16aa\L	.
.	.	.	.	.	.	16f/)	.	16gg\	.	.	.	.	.	.	.	.	.	.	.	.	.	.	.	.	.	.	.	16gg\	.
8B-\J	.	.	.	8c\J	.	(16e-/	.	16aa\)	.	8A\	-ri-	.	8c\	-ri-	.	8f\	-ri-	.	8ee-\	-ri-	.	.	.	.	.	.	.	16aa\)	.
.	.	.	.	.	.	16f/JJ)	.	16ff\JJ|	.	.	.	.	.	.	.	.	.	.	.	.	.	.	.	.	.	.	.	16ff\JJ|	.
!	!	!	!	!	!	!LO:LB:g=original	!	!	!	!	!	!	!	!	!	!	!	!	!	!	!	!	!	!	!	!	!	!	!
=62	=62	=62	=62	=62	=62	=62	=62	=62	=62	=62	=62	=62	=62	=62	=62	=62	=62	=62	=62	=62	=62	=62	=62	=62	=62	=62	=62	=62	=62
*tremolo	*	*	*	*tremolo	*	*	*	*	*	*	*	*	*	*	*	*	*	*	*	*	*	*	*	*2\right	*	*	*	*	*
!	!	!	!	!	!	!	!	!LO:TX:t=P:problem:mixed beam	!	!	!	!	!	!	!	!	!	!	!	!	!	!LO:TX:t=P:problem:brak początku ligatury	!	!	!	!LO:TX:t=P:problem:mixed beam	!	!	!
8B-\L	2.BB-\	x 3 8 5	.	8B-/L	.	(16d/LL	.	(>8bb-\L	.	4B-\	-e	.	4B-\	-e	.	4f\	-e	.	4dd\	-e	.	2.B-/_>	.	2.b-\	.	(8b-\L	.	(8bb-\L	.
.	.	.	.	.	.	16f/)	.	.	.	.	.	.	.	.	.	.	.	.	.	.	.	.	.	.	.	.	.	.	.
8B-\	.	.	.	8B-/	.	(16d/	.	8b-/)	.	.	.	.	.	.	.	.	.	.	.	.	.	.	.	.	.	8B-/)	.	8b-\)	.
.	.	.	.	.	.	16f/)	.	.	.	.	.	.	.	.	.	.	.	.	.	.	.	.	.	.	.	.	.	.	.
8B-\J	.	.	.	8B-/J	.	(16d/	.	8dd/J|>	.	8B-\	e-	.	8B-\	e-	.	8f\	e-	.	8dd\	e-	.	.	.	.	.	8d/J|	.	8dd\J|	.
.	.	.	.	.	.	16f/JJ)	.	.	.	.	.	.	.	.	.	.	.	.	.	.	.	.	.	.	.	.	.	.	.
8B-\L	.	.7 5 4 2	.	8A/L	.	(16c/LL	.	(8.ff\L	.	4.F\	-lei-	.	4.A\	-lei-	.	4.e-X\	-lei-	.	4.cc\	-lei-	.	.	.	.	.	(8.f/L	.	(8.ff\L	.
.	.	.	.	.	.	16f/)	.	.	.	.	.	.	.	.	.	.	.	.	.	.	.	.	.	.	.	.	.	.	.
8B-\	.	.	.	8A/	.	(16c/	.	.	.	.	.	.	.	.	.	.	.	.	.	.	.	.	.	.	.	.	.	.	.
.	.	.	.	.	.	16f/)	.	16een\L	.	.	.	.	.	.	.	.	.	.	.	.	.	.	.	.	.	16eX/L	.	16eeX\L	.
8B-\J	.	.	.	8A/J	.	(16c/	.	16ee-X\	.	.	.	.	.	.	.	.	.	.	.	.	.	.	.	.	.	16e-/	.	16ee-\	.
.	.	.	.	.	.	16f/JJ)	.	16cc\JJ)	.	.	.	.	.	.	.	.	.	.	.	.	.	.	.	.	.	16c/JJ)	.	16cc\JJ)	.
!	!	!	!	!	!	!	!	!	!	!	!	!	!	!	!	!LO:LB:g=original	!	!	!	!	!	!LO:LB:g=original	!	!	!	!	!	!LO:LB:g=original	!
=63	=63	=63	=63	=63	=63	=63	=63	=63	=63	=63	=63	=63	=63	=63	=63	=63	=63	=63	=63	=63	=63	=63	=63	=63	=63	=63	=63	=63	=63
!	!	!	!	!	!	!	!	!	!	!	!	!	!	!	!	!	!	!	!	!	!	!	!	!	!	!LO:TX:t=P:problem:mixed beam	!	!	!
8B-\L	2.BB-\	x 8 5 3	.	8B-/L	.	(16d/LL	.	(8cc#X\L	.	4.BB-/	-son	.	4.B-\	-son	.	4.d\	-son	.	4.b-\	-son	.	2.B-/_>	.	2.b-\	.	(8c#X/L	.	(8cc#X\L	.
.	.	.	.	.	.	16f/)	.	.	.	.	.	.	.	.	.	.	.	.	.	.	.	.	.	.	.	.	.	.	.
8B-\	.	.	.	8B-/	.	(16d/	.	8dd\J)	.	.	.	.	.	.	.	.	.	.	.	.	.	.	.	.	.	8d/)	.	8dd\)	.
.	.	.	.	.	.	16f/)	.	.	.	.	.	.	.	.	.	.	.	.	.	.	.	.	.	.	.	.	.	.	.
8B-\J	.	.	.	8B-/J	.	(16d/	.	8bb-\|	.	.	.	.	.	.	.	.	.	.	.	.	.	.	.	.	.	8b-\J|	.	8bb-\J|	.
.	.	.	.	.	.	16f/JJ)	.	.	.	.	.	.	.	.	.	.	.	.	.	.	.	.	.	.	.	.	.	.	.
8B-\L	.	x 2 7 5	.	8c/L	.	(16e-/LL	.	8cccn\L|	.	4A\	Ky-	.	4c\	Ky-	.	4f\	Ky-	.	4ee-\	Ky-	.	.	.	.	.	4.a\	.	8ccc\L|	.
.	.	.	.	.	.	16f/)	.	.	.	.	.	.	.	.	.	.	.	.	.	.	.	.	.	.	.	.	.	.	.
8B-\	.	.	.	8c/	.	(16e-/	.	(16aa\L	.	.	.	.	.	.	.	.	.	.	.	.	.	.	.	.	.	.	.	(16aa\L	.
.	.	.	.	.	.	16f/)	.	16gg\	.	.	.	.	.	.	.	.	.	.	.	.	.	.	.	.	.	.	.	16gg\	.
8B-\J	.	.	.	8c/J	.	(16e-/	.	16aa\)	.	8A\	-ri-	.	8c\	-ri-	.	8f\	-ri-	.	8ee-\	-ri-	.	.	.	.	.	.	.	16aa\	.
.	.	.	.	.	.	16f/JJ)	.	16ff\JJ|	.	.	.	.	.	.	.	.	.	.	.	.	.	.	.	.	.	.	.	16ff\JJ)	.
!	!	!	!	!	!	!	!	!	!	!LO:LB:g=original	!	!	!	!	!	!	!	!	!	!	!	!	!	!	!	!	!	!	!
=64	=64	=64	=64	=64	=64	=64	=64	=64	=64	=64	=64	=64	=64	=64	=64	=64	=64	=64	=64	=64	=64	=64	=64	=64	=64	=64	=64	=64	=64
!	!	!	!	!	!	!	!	!LO:TX:t=P:problem:mixed beam	!	!	!	!	!	!	!	!	!	!	!	!	!	!	!	!	!	!LO:TX:t=P:problem:mixed beam	!	!	!
8B-\L	2.BB-\	x 3 8 5	.	8B-/L	.	(16d/LL	.	(>8bb-\L	.	4B-\	-e	.	4B-\	-e	.	4f\	-e	.	4dd\	-e	.	2.B-/_>	.	2.b-\	.	(8b-\L	.	(8bb-\L	.
.	.	.	.	.	.	16f/)	.	.	.	.	.	.	.	.	.	.	.	.	.	.	.	.	.	.	.	.	.	.	.
8B-\	.	.	.	8B-/	.	(16d/	.	8b-/)	.	.	.	.	.	.	.	.	.	.	.	.	.	.	.	.	.	8B-/)	.	8b-\)	.
.	.	.	.	.	.	16f/)	.	.	.	.	.	.	.	.	.	.	.	.	.	.	.	.	.	.	.	.	.	.	.
8B-\J	.	.	.	8B-/J	.	(16d/	.	8dd/J|>	.	8B-\	e-	.	8B-\	e-	.	8f\	e-	.	8dd\	e-	.	.	.	.	.	8d/J|	.	8dd\J|	.
.	.	.	.	.	.	16f/JJ)	.	.	.	.	.	.	.	.	.	.	.	.	.	.	.	.	.	.	.	.	.	.	.
8B-\L	.	7 5 4 2	.	8A/L	.	(16c/LL	.	(8.ff\L	.	4.F\	-lei-	.	4.A\	-lei-	.	4.e-\	-lei-	.	4.cc\	-lei-	.	.	.	.	.	(8.f/L	.	(8.ff\L	.
.	.	.	.	.	.	16f/)	.	.	.	.	.	.	.	.	.	.	.	.	.	.	.	.	.	.	.	.	.	.	.
8B-\	.	.	.	8A/	.	(16c/	.	.	.	.	.	.	.	.	.	.	.	.	.	.	.	.	.	.	.	.	.	.	.
.	.	.	.	.	.	16f/)	.	16een\L	.	.	.	.	.	.	.	.	.	.	.	.	.	.	.	.	.	16eX/L	.	16eeX\L	.
8B-\J	.	.	.	8A/J	.	(16c/	.	16ee-X\	.	.	.	.	.	.	.	.	.	.	.	.	.	.	.	.	.	16e-/	.	16ee-\	.
.	.	.	.	.	.	16f/JJ)	.	16cc\JJ)	.	.	.	.	.	.	.	.	.	.	.	.	.	.	.	.	.	16c/JJ)	.	16cc\JJ)	.
*Xtremolo	*	*	*	*Xtremolo	*	*	*	*	*	*	*	*	*	*	*	*	*	*	*	*	*	*	*	*	*	*	*	*	*
*v	*v	*	*	*	*	*	*	*	*	*	*	*	*	*	*	*	*	*	*	*	*	*	*	*	*	*	*	*	*
!LO:LB:g=original	!	!	!	!	!	!	!	!	!	!	!	!	!	!	!	!	!	!	!	!	!	!	!	!	!	!	!	!
=65	=65	=65	=65	=65	=65	=65	=65	=65	=65	=65	=65	=65	=65	=65	=65	=65	=65	=65	=65	=65	=65	=65	=65	=65	=65	=65	=65	=65
!	!	!	!	!	!LO:TX:t=P:problem:mixed beam	!LO:DY:t=pia	!	!LO:DY:t=pia	!	!	!	!	!	!	!	!	!	!	!	!	!	!	!	!	!	!	!	!LO:DY:t=pia
4B- 4BB-\	.	.	4B-/	.	(8f/L	p	8dd\L	p	4BB-/	-son	.	4B-\	-son	.	4d\	-son	.	4b-\	-son	.	4B-/]	.	4b-\	.	8B-/L	.	8dd\L	p
!	!	!	!	!	!	!	!	!	!	!	!	!	!	!	!	!	!	!	!	!	!	!	!	!	!	!LO:DY:t=pia	!	!
.	.	.	.	.	8gg\	.	(8bb-\	.	.	.	.	.	.	.	.	.	.	.	.	.	.	.	.	.	8g/	p	(8b-\	.
8r	.	.	8r	.	8ff\J	.	8aa\J	.	8r	.	.	8r	.	.	8r	.	.	8r	.	.	8r	.	8r	.	8f/J	.	8a\J	.
!	!	!	!	!	!	!	!	!	!	!	!	!	!	!	!	!	!	!	!	!	!	!	!	!	!LO:LB:g=original	!	!	!
4r	.	.	4r	.	8ee-\L	.	8gg\L	.	4r	.	.	4r	.	.	4r	.	.	4r	.	.	4r	.	4r	.	8e-/L	.	8g/L	.
.	.	.	.	.	8dd\	.	8ff\	.	.	.	.	.	.	.	.	.	.	.	.	.	.	.	.	.	8d/	.	8f/	.
8r	.	.	8r	.	8cc\J)	.	8ee-\J)	.	8r	.	.	8r	.	.	8r	.	.	8r	.	.	8r	.	8r	.	8c/J	.	8e-/J)	.
=66	=66	=66	=66	=66	=66	=66	=66	=66	=66	=66	=66	=66	=66	=66	=66	=66	=66	=66	=66	=66	=66	=66	=66	=66	=66	=66	=66	=66
!	!	!	!	!LO:DY:t=pia	!	!	!	!	!LO:TX:a:t=1	!	!	!LO:TX:a:t=1	!	!	!LO:TX:a:t=1	!	!	!LO:TX:a:t=1	!	!	!LO:TX:a:t=3	!	!LO:TX:a:t=3	!	!	!	!	!
8B-\L	5_ 1_	.	(8b-\L	p	4b-\	.	4dd\	.	2.r	.	.	2.r	.	.	2.r	.	.	2.r	.	.	1.r	.	1.r	.	4B-/	.	4d/	.
8A\	.	.	8a\	.	.	.	.	.	.	.	.	.	.	.	.	.	.	.	.	.	.	.	.	.	.	.	.	.
8A-X\J	.	.	8a-X\J	.	8b-\	.	8dd\	.	.	.	.	.	.	.	.	.	.	.	.	.	.	.	.	.	8r	.	8r	.
!	!	!	!LO:LB:g=original	!	!	!	!	!	!	!	!	!	!	!	!	!	!	!	!	!	!	!	!	!	!	!	!	!
8G\L	6 _	.	8g\L	.	8b-\L	.	(8ee-\L	.	.	.	.	.	.	.	.	.	.	.	.	.	.	.	.	.	4r	.	4r	.
8F\	8 _	.	8f\	.	8b-\	.	8ff\)	.	.	.	.	.	.	.	.	.	.	.	.	.	.	.	.	.	.	.	.	.
8E-\J	3 x	.	8e-\J)	.	8b-\J	.	8gg\J|	.	.	.	.	.	.	.	.	.	.	.	.	.	.	.	.	.	8r	.	8r	.
=67	=67	=67	=67	=67	=67	=67	=67	=67	=67	=67	=67	=67	=67	=67	=67	=67	=67	=67	=67	=67	=67	=67	=67	=67	=67	=67	=67	=67
*	*	*	*	*	*	*	*	*	*	*	*	*	*	*	*	*	*	*	*	*	*	*	*	*	*	*	*2\right	*
!	!	!	!	!LO:DY:t=forto	!	!	!	!LO:DY:t=forto	!	!	!	!	!	!	!	!	!	!	!	!	!	!	!	!	!	!LO:DY:t=fort	!	!LO:DY:t=fort
8D\L	3_ 6	.	16d\LL	f	16b-\LL	.	16ff'\LL	f	4d\	Ky-	.	4d\	Ky-	.	4b-\	Ky-	.	4ff\	Ky-	.	.	.	.	.	4.b-\	f	2.ff\	f
.	.	.	16d\	.	16b-\	.	16ff'\	.	.	.	.	.	.	.	.	.	.	.	.	.	.	.	.	.	.	.	.	.
8D\	.	.	16d\	.	16b-\	.	16ff'\	.	.	.	.	.	.	.	.	.	.	.	.	.	.	.	.	.	.	.	.	.
.	.	.	16d\	.	16b-\	.	16ff'\	.	.	.	.	.	.	.	.	.	.	.	.	.	.	.	.	.	.	.	.	.
8D\J	.	.	16d\	.	16b-\	.	16ff'\	.	8d\	-ri-	.	8d\	-ri-	.	8b-\	-ri-	.	8ff\	-ri-	.	.	.	.	.	.	.	.	.
.	.	.	16d\JJ	.	16b-\JJ	.	16ff'\JJ	.	.	.	.	.	.	.	.	.	.	.	.	.	.	.	.	.	.	.	.	.
*tremolo	*	*	*tremolo	*	*custos:bn	*	*tremolo	*	*	*	*	*	*	*	*	*	*	*	*	*	*	*	*	*	*	*	*	*
!	!	!	!	!	!LO:LB:g=original	!	!LO:TX:a:t=......	!	!	!	!	!	!	!	!	!	!	!LO:LB:g=original	!	!	!	!	!	!	!	!	!	!
8G\L	x n	.	16d\LL	.	16bn\LL	.	16ff'\L	.	4.G\	-e	.	4.d\	-e	.	4.bn\	-e	.	4.ff\	-e	.	.	.	.	.	4.bX\	.	.	.
.	.	.	16d\	.	16b\	.	16ff'\	.	.	.	.	.	.	.	.	.	.	.	.	.	.	.	.	.	.	.	.	.
8G\	.	.	16d\	.	16b\	.	16ff'\	.	.	.	.	.	.	.	.	.	.	.	.	.	.	.	.	.	.	.	.	.
.	.	.	16d\	.	16b\	.	16ff'\	.	.	.	.	.	.	.	.	.	.	.	.	.	.	.	.	.	.	.	.	.
8G\J	.	.	16d\	.	16b\	.	16ff'\	.	.	.	.	.	.	.	.	.	.	.	.	.	.	.	.	.	.	.	.	.
.	.	.	16d\JJ	.	16b\JJ	.	16ff'\J	.	.	.	.	.	.	.	.	.	.	.	.	.	.	.	.	.	.	.	.	.
=68	=68	=68	=68	=68	=68	=68	=68	=68	=68	=68	=68	=68	=68	=68	=68	=68	=68	=68	=68	=68	=68	=68	=68	=68	=68	=68	=68	=68
*	*	*	*	*	*tremolo	*	*	*	*	*	*	*	*	*	*	*	*	*	*	*	*	*	*	*	*	*	*	*
8C/L	3_ 5	.	16c\LL	.	16g/LL	.	16ee-\LL	.	4c\	Ky-	.	4c\	Ky-	.	4g\	Ky-	.	4ee-\	Ky-	.	2.r	.	2.r	.	4.g\	.	2.ee-\	.
.	.	.	16c\	.	16g/	.	16ee-\	.	.	.	.	.	.	.	.	.	.	.	.	.	.	.	.	.	.	.	.	.
8C/	.	.	16c\	.	16g/	.	16ee-\	.	.	.	.	.	.	.	.	.	.	.	.	.	.	.	.	.	.	.	.	.
.	.	.	16c\	.	16g/	.	16ee-\	.	.	.	.	.	.	.	.	.	.	.	.	.	.	.	.	.	.	.	.	.
8C/J	.	.	16c\	.	16g/	.	16ee-\	.	8c\	-ri-	.	8c\	-ri-	.	8g\	-ri-	.	8ee-\	-ri-	.	.	.	.	.	.	.	.	.
.	.	.	16c\	.	16g/JJ	.	16ee-\JJ	.	.	.	.	.	.	.	.	.	.	.	.	.	.	.	.	.	.	.	.	.
8F\L	x 3	.	16c\	.	16a/LL	.	16ee-\LL	.	4.F\	-e	.	4.c\	-e	.	4.a\	-e	.	4.ee-\	-e	.	.	.	.	.	4.a\	.	.	.
.	.	.	16c\	.	16a/	.	16ee-\	.	.	.	.	.	.	.	.	.	.	.	.	.	.	.	.	.	.	.	.	.
8F\	.	.	16c\	.	16a/	.	16ee-\	.	.	.	.	.	.	.	.	.	.	.	.	.	.	.	.	.	.	.	.	.
.	.	.	16c\	.	16a/	.	16ee-\	.	.	.	.	.	.	.	.	.	.	.	.	.	.	.	.	.	.	.	.	.
8F\J	.	.	16c\	.	16a/	.	16ee-\	.	.	.	.	.	.	.	.	.	.	.	.	.	.	.	.	.	.	.	.	.
.	.	.	16c\JJ	.	16a/JJ	.	16ee-\JJ	.	.	.	.	.	.	.	.	.	.	.	.	.	.	.	.	.	.	.	.	.
*Xtremolo	*	*	*Xtremolo	*	*Xtremolo	*	*Xtremolo	*	*	*	*	*	*	*	*	*	*	*	*	*	*	*	*	*	*	*	*	*
!	!	!	!	!	!	!	!LO:LB:g=original	!	!	!	!	!LO:LB:g=original	!	!	!	!	!	!	!	!	!	!	!	!	!	!	!	!
=69	=69	=69	=69	=69	=69	=69	=69	=69	=69	=69	=69	=69	=69	=69	=69	=69	=69	=69	=69	=69	=69	=69	=69	=69	=69	=69	=69	=69
8BB-/L	3	.	8f\L	.	16b-/LL|	.	16dd\LL|	.	8B-\L	e-	.	8B-\L	e-	.	8f\L	e-	.	8dd\L	e-	.	4B-/	.	4f/	.	(8f/L	.	(8dd\L	.
.	.	.	.	.	16b-/|	.	(16dd\	.	.	.	.	.	.	.	.	.	.	.	.	.	.	.	.	.	.	.	.	.
8E-/	.	.	8e-\	.	16g/|	.	16ee-\)	.	8E-\	.	.	8e-\	.	.	8g\	.	.	8ee-\	.	.	.	.	.	.	8g/)	.	8ee-\)	.
.	.	.	.	.	16g/|	.	(16ee-\	.	.	.	.	.	.	.	.	.	.	.	.	.	.	.	.	.	.	.	.	.
8G/J	6	.	8g\J	.	16e-/|	.	16cc\)	.	8G\J	.	.	8c\J	.	.	8e-\J	.	.	8cc\J	.	.	8r	.	8r	.	8e-/J|	.	8cc\J|	.
.	.	.	.	.	16e-/JJ|	.	(16cc\JJ	.	.	.	.	.	.	.	.	.	.	.	.	.	.	.	.	.	.	.	.	.
!	!	!	!	!	!	!	!	!	!	!	!	!	!	!	!	!	!	!	!	!	!	!	!LO:LB:g=original	!	!	!	!	!
4F\	4	.	4f\	.	16d/LL|	.	16b-\LL)	.	4F\	-lei-	.	4f\	-lei-	.	8d\L	-lei-	.	8b-\L	-lei-	.	4b-\	.	4dd\	.	(8d/L	.	(8b-\L	.
.	.	.	.	.	16d/|	.	(16b-\	.	.	.	.	.	.	.	.	.	.	.	.	.	.	.	.	.	.	.	.	.
.	.	.	.	.	16e-/|	.	16cc\)	.	.	.	.	.	.	.	8e-\J	.	.	8cc\J	.	.	.	.	.	.	8e-/)	.	8cc\)	.
.	.	.	.	.	16e-/|	.	(16cc\	.	.	.	.	.	.	.	.	.	.	.	.	.	.	.	.	.	.	.	.	.
8FF/	3	.	8f\	.	16c/|	.	16a\)	.	8F\	-son	.	8f\	-son	.	8c\	-son	.	8a\	-son	.	8f/	.	8cc\	.	8c/J|	.	8a\J|	.
.	.	.	.	.	16c/JJ|	.	16a\JJ	.	.	.	.	.	.	.	.	.	.	.	.	.	.	.	.	.	.	.	.	.
=70	=70	=70	=70	=70	=70	=70	=70	=70	=70	=70	=70	=70	=70	=70	=70	=70	=70	=70	=70	=70	=70	=70	=70	=70	=70	=70	=70	=70
!	!	!LO:DY:t=pia	!	!LO:DY:t=pia	!	!LO:DY:t=pia	!	!LO:DY:t=pia	!	!	!	!	!	!	!	!	!	!	!	!LO:DY:a:t=pia:color=red	!	!	!	!	!	!LO:DY:t=pia	!	!LO:DY:t=pia
8BB-/L	5	p	8B-/L	p	16r	p	16r	p	16B-\|	Ky-	.	16d\	Ky-	.	16f\	Ky-	.	16ff\	Ky-	p	8d/L	.	8b-\L	.	16r	p	16r	p
.	.	.	.	.	16dd\|	.	16ff\|	.	16r	.	.	16r	.	.	16r	.	.	16r	.	.	.	.	.	.	16dd\|	.	16ff\	.
!	!	!	!	!	!	!	!	!	!	!	!	!	!	!	!	!	!	!	!	!	!	!	!	!	!	!	!LO:LB:g=original	!
8C/	3	.	8c/	.	16r	.	16r	.	16A\|	-ri-	.	16c\	-ri-	.	16f\	-ri-	.	16ee-\	-ri-	.	8f/	.	8cc\	.	16r	.	8r	.
.	.	.	.	.	16cc\|	.	16ee-\|	.	16r	.	.	16r	.	.	16r	.	.	16r	.	.	.	.	.	.	16cc\|	.	.	.
8D/J	8	.	8d/J	.	16r	.	16r	.	16B-\|	-e	.	16B-\	-e	.	16f\	-e	.	16dd\	-e	.	8b-/J	.	8dd\J	.	16r	.	16ee-\	.
.	.	.	.	.	16b-\|	.	16dd\|	.	16r	.	.	16r	.	.	16r	.	.	16r	.	.	.	.	.	.	16b-\|	.	16r	.
.	.	.	.	.	.	.	.	.	.	.	.	.	.	.	.	.	.	16qqdd/	.	.	.	.	.	.	.	.	.	.
!LO:TX:t=P:problem:mixed beam	!	!	!	!	!	!	!	!	!	!	!	!	!	!	!LO:LB:g=original	!	!	!	!	!	!	!	!	!	!	!	!	!
8E-\L	6	.	8e-\L	.	(16f/LL	.	(16dd\LL	.	8E-\	e-	.	8G/	e-	.	8e-\	e-	.	8cc\	e-	.	8r	.	8r	.	(16f/LL	.	(16dd\LL	.
.	.	.	.	.	16e-/)	.	16cc\)	.	.	.	.	.	.	.	.	.	.	.	.	.	.	.	.	.	16e-/)	.	16cc\)	.
8F\	4	.	8f\	.	(16e-/	.	(16cc\	.	8F\	-lei-	.	8F/	-lei-	.	8d\	-lei-	.	8b-\	-lei-	.	8b-\L	.	8dd\L	.	(16e-/	.	(16cc\	.
.	.	.	.	.	16d/)	.	16b-\)	.	.	.	.	.	.	.	.	.	.	.	.	.	.	.	.	.	16d/)	.	16b-\)	.
8FF/J	3	.	8f\J	.	(16d/	.	(16b-\	.	8F\	-son	.	8F/	-son	.	8c\	-son	.	8a\	-son	.	8f\J	.	8cc\J	.	(16d/	.	(16b-\	.
.	.	.	.	.	16c/JJ)	.	16a\JJ)	.	.	.	.	.	.	.	.	.	.	.	.	.	.	.	.	.	16c/JJ)	.	16a\JJ)	.
!	!	!	!	!	!	!	!	!	!LO:LB:g=original	!	!	!	!	!	!	!	!	!	!	!	!	!	!	!	!	!	!	!
=71	=71	=71	=71	=71	=71	=71	=71	=71	=71	=71	=71	=71	=71	=71	=71	=71	=71	=71	=71	=71	=71	=71	=71	=71	=71	=71	=71	=71
!	!	!LO:DY:t=forte	!	!LO:DY:t=forte	!	!LO:DY:t=fort	!	!LO:DY:t=forte	!	!	!	!	!	!	!	!	!	!	!	!LO:DY:a:t=forte:color=red	!	!	!	!	!LO:TX:t=P:problem:mixed beam	!LO:DY:t=fort	!	!LO:DY:t=forte
8BB-/L	.	f	8B-/L	f	16dd\LL|	f	16ff\LL|	f	8BB-/	Ky-	.	8B-\	Ky-	.	8dd\	Ky-	.	8ff\	Ky-	f	4d/	.	4b-\	.	8c/L	f	(8ff\L	f
.	.	.	.	.	16dd\|	.	16ff\|	.	.	.	.	.	.	.	.	.	.	.	.	.	.	.	.	.	.	.	.	.
8C/	.	.	8c/	.	16ee-\|	.	16aa\|	.	8C/	-ri-	.	8c\	-ri-	.	8a\	-ri-	.	8ee-\	-ri-	.	.	.	.	.	8ee-\	.	8aa\)	.
.	.	.	.	.	16ee-\|	.	16aa\|	.	.	.	.	.	.	.	.	.	.	.	.	.	.	.	.	.	.	.	.	.
8D/J	.	.	8d/J	.	16ff\|	.	16bb-\|	.	8D\	-e	.	8d\	-e	.	8b-\	-e	.	8dd\	-e	.	8r	.	8r	.	8ff\J	.	8bb-\J|	.
!	!	!	!	!	!	!	!	!	!LO:TX:t=P:problem:kreska taktowa	!	!	!	!	!	!	!	!	!	!	!	!	!	!	!	!	!	!	!
.	.	.	.	.	16ff\JJ|	.	16bb-\JJ|	.	.	.	.	.	.	.	.	.	.	.	.	.	.	.	.	.	.	.	.	.
!LO:TX:t=P:problem:mixed beam	!	!	!	!	!	!	!	!	!	!	!	!	!	!	!	!	!	!	!	!	!	!	!	!	!	!	!	!
8E-\L	.	.	8g\L	.	(32ff\LLL	.	(32aa\LLL	.	8E-\	e-	.	8g\	e-	.	16g\LL	e-	.	(32ff\LLL	e-	.	8r	.	8r	.	(32ff\LLL	.	(32aa\LLL	.
.	.	.	.	.	32ee-\	.	32gg\	.	.	.	.	.	.	.	.	.	.	32ee-\	.	.	.	.	.	.	32ee-\	.	32gg\	.
.	.	.	.	.	32dd\	.	32ff\	.	.	.	.	.	.	.	32f\L	.	.	32dd\	.	.	.	.	.	.	32dd\	.	32ff\	.
.	.	.	.	.	32cc\JJJ)	.	32ee-\JJJ)	.	.	.	.	.	.	.	32e-\JJJ	.	.	32cc\JJJ)	.	.	.	.	.	.	32cc\JJJ)	.	32ee-\JJJ)	.
!	!	!	!	!	!	!	!	!	!LO:TX:t=P:problem:mixed beam	!	!	!	!	!	!	!	!	!	!	!	!	!	!	!	!	!	!	!
8F\	.	.	8f\	.	8b-/L	.	8dd\L	.	8F\L	-lei-	.	4f\	-lei-	.	8d\L	-lei-	.	8b-\L	-lei-	.	8b-\L	.	8dd\L	.	8b-\L	.	8dd\L	.
8FF/J	.	.	8f\J	.	8f/J	.	8cc\J	.	8FF/J	.	.	.	.	.	8c\J	.	.	8a\J	.	.	8f\J	.	8cc\J	.	8a\J	.	8cc\J	.
!	!	!	!	!	!LO:LB:g=original	!	!	!	!	!	!	!	!	!	!	!	!	!	!	!	!	!	!	!	!LO:LB:g=original	!	!	!
=72	=72	=72	=72	=72	=72	=72	=72	=72	=72	=72	=72	=72	=72	=72	=72	=72	=72	=72	=72	=72	=72	=72	=72	=72	=72	=72	=72	=72
!	!	!	!	!LO:DY:t=pia	!	!LO:DY:a:t=pia	!	!LO:DY:t=pia	!	!	!	!	!	!	!	!	!	!	!	!	!	!	!	!	!	!	!	!
4BB-/	3	.	4f\	p	4d/	p	(4b-\	p	4BB-/	-son	.	4f\	-son	.	4d\	-son	.	4b-\	-son	.	4d/	.	4b-\	.	4b-\	.	4b-\	.
8D\	-5 3	.	8B-/	.	8f/	.	8a-X\)	.	8r	.	.	8r	.	.	8r	.	.	8r	.	.	8r	.	8r	.	8r	.	8r	.
!	!	!	!	!	!	!	!LO:TX:t=P:problem:mixed beam	!	!	!	!	!	!	!	!	!	!	!	!	!	!	!	!	!	!	!	!	!
4E-\	3	.	4B-/	.	4e-/	.	(8g/L	.	4r	.	.	4r	.	.	4r	.	.	4r	.	.	4r	.	4r	.	4r	.	4r	.
.	.	.	.	.	.	.	8ee-\	.	.	.	.	.	.	.	.	.	.	.	.	.	.	.	.	.	.	.	.	.
!LO:TX:b:i:t=pedal	!	!	!	!	!	!	!	!	!	!	!	!	!	!	!	!	!	!	!	!	!	!	!	!	!	!	!	!
8r	.	.	8r	.	8r	.	8cc\J)	.	8r	.	.	8r	.	.	8r	.	.	8r	.	.	8r	.	8r	.	8r	.	8r	.
=73	=73	=73	=73	=73	=73	=73	=73	=73	=73	=73	=73	=73	=73	=73	=73	=73	=73	=73	=73	=73	=73	=73	=73	=73	=73	=73	=73	=73
!	!	!	!	!	!	!	!	!	!LO:TX:a:t=2	!	!	!LO:TX:a:t=2	!	!	!LO:TX:a:t=2	!	!	!LO:TX:a:t=2	!	!	!	!	!	!	!LO:TX:a:t=2	!	!LO:TX:a:t=2	!
4FF/	.	.	4c\	>	4e-/	.	(16b-/LL	>	1.r	.	.	1.r	.	.	1.r	.	.	1.r	.	.	4r	.	4r	.	1.r	.	1.r	.
.	.	.	.	.	.	.	16an/	.	.	.	.	.	.	.	.	.	.	.	.	.	.	.	.	.	.	.	.	.
.	.	.	.	.	.	.	16g/	.	.	.	.	.	.	.	.	.	.	.	.	.	.	.	.	.	.	.	.	.
.	.	.	.	.	.	.	16f/	.	.	.	.	.	.	.	.	.	.	.	.	.	.	.	.	.	.	.	.	.
8F\|	.	.	8c\	.	8e-/	.	16g/	.	.	.	.	.	.	.	.	.	.	.	.	.	8r	.	8r	.	.	.	.	.
.	.	.	.	.	.	.	16a/JJ)	.	.	.	.	.	.	.	.	.	.	.	.	.	.	pp	.	.	.	.	.	.
8BB-/	.	.	8f\	.	8d/	.	8b-\	]	.	.	.	.	.	.	.	.	.	.	.	.	4r	.	4r	pp	.	.	.	.
8r	.	.	8r	]	8r	ppp	8r	.	.	.	.	.	.	.	.	.	.	.	.	.	.	.	.	.	.	.	.	.
8B-\|	.	pp	8f\	ppp	8f/	.	8dd\	ppp	.	.	.	.	.	.	.	.	.	.	.	.	8B-/	.	8f/	.	.	.	.	.
=74	=74	=74	=74	=74	=74	=74	=74	=74	=74	=74	=74	=74	=74	=74	=74	=74	=74	=74	=74	=74	=74	=74	=74	=74	=74	=74	=74	=74
4BB-/|	.	.	4f\	.	4d/	.	4b-\	.	.	.	.	.	.	.	.	.	.	.	.	.	4B-/	.	4f/	.	.	.	.	.
8r	.	.	8r	.	8r	.	8r	.	.	.	.	.	.	.	.	.	.	.	.	.	8r	.	8r	.	.	.	.	.
4r	.	.	4r	.	4r	.	4r	.	.	.	.	.	.	.	.	.	.	.	.	.	4r	.	4r	.	.	.	.	.
!	!	!	!	!	!	!	!LO:TX:b:t=volti Gloria	!	!	!	!	!	!	!	!	!	!	!	!	!	!	!	!	!	!	!	!	!
8r	.	.	8r	.	8r	.	8r	.	.	.	.	.	.	.	.	.	.	.	.	.	8r	.	8r	.	.	.	.	.
==	==	==	==	==	==	==	==	==	==	==	==	==	==	==	==	==	==	==	==	==	==	==	==	==	==	==	==	==
*-	*-	*-	*-	*-	*-	*-	*-	*-	*-	*-	*-	*-	*-	*-	*-	*-	*-	*-	*-	*-	*-	*-	*-	*-	*-	*-	*-	*-
!!!system-decoration: [(g1)][(g2)][(g3)][(g4)]s12
!!!RDF**kern: > = above
!!!RDF**kern: < = below
!!!RDF**kern: | = vertical stroke
!!!ENC: Tomasz Grochalski
!!!END: 2020-10-28
!!!ENC: Marta Lawrence
!!!END: 2022-04-22
